desktop/public/luts/sepia4.cube
#Generated with IWLTBAP LUT Generator
#Website: https://luts.iwltbap.com
TITLE "Sepia 4"
LUT_3D_SIZE 64
0.054902 0.023529 0.011765
0.050980 0.019608 0.007843
0.058824 0.027451 0.015686
0.058824 0.027451 0.015686
0.062745 0.031373 0.019608
0.074510 0.039216 0.019608
0.070588 0.035294 0.015686
0.070588 0.035294 0.015686
0.078431 0.043137 0.015686
0.082353 0.047059 0.019608
0.094118 0.050980 0.027451
0.098039 0.054902 0.031373
0.105882 0.066667 0.031373
0.117647 0.066667 0.035294
0.129412 0.078431 0.047059
0.133333 0.082353 0.050980
0.141176 0.086275 0.050980
0.149020 0.094118 0.058824
0.160784 0.105882 0.070588
0.160784 0.105882 0.070588
0.172549 0.105882 0.066667
0.184314 0.117647 0.078431
0.192157 0.125490 0.086275
0.203922 0.133333 0.094118
0.207843 0.137255 0.098039
0.211765 0.141176 0.094118
0.231373 0.152941 0.109804
0.231373 0.152941 0.109804
0.243137 0.164706 0.121569
0.262745 0.176471 0.133333
0.262745 0.176471 0.125490
0.274510 0.188235 0.137255
0.278431 0.192157 0.141176
0.286275 0.200000 0.149020
0.294118 0.207843 0.156863
0.301961 0.215686 0.164706
0.309804 0.219608 0.160784
0.317647 0.227451 0.168627
0.329412 0.239216 0.180392
0.337255 0.247059 0.188235
0.345098 0.254902 0.196078
0.349020 0.258824 0.200000
0.360784 0.258824 0.203922
0.376471 0.274510 0.219608
0.384314 0.282353 0.227451
0.392157 0.290196 0.235294
0.403922 0.301961 0.247059
0.411765 0.301961 0.250980
0.415686 0.313725 0.254902
0.427451 0.325490 0.266667
0.431373 0.329412 0.270588
0.447059 0.345098 0.286275
0.458824 0.349020 0.294118
0.470588 0.360784 0.305882
0.482353 0.372549 0.317647
0.494118 0.384314 0.329412
0.501961 0.392157 0.341176
0.501961 0.392157 0.341176
0.505882 0.396078 0.345098
0.509804 0.400000 0.349020
0.509804 0.400000 0.349020
0.513725 0.403922 0.352941
0.521569 0.411765 0.360784
0.525490 0.415686 0.364706
0.058824 0.027451 0.015686
0.062745 0.031373 0.019608
0.066667 0.031373 0.011765
0.066667 0.031373 0.011765
0.074510 0.039216 0.019608
0.078431 0.043137 0.023529
0.082353 0.047059 0.027451
0.078431 0.043137 0.023529
0.094118 0.050980 0.027451
0.094118 0.054902 0.019608
0.105882 0.066667 0.031373
0.109804 0.070588 0.035294
0.117647 0.066667 0.035294
0.125490 0.074510 0.043137
0.129412 0.078431 0.047059
0.137255 0.078431 0.050980
0.149020 0.094118 0.058824
0.156863 0.101961 0.066667
0.160784 0.105882 0.070588
0.176471 0.109804 0.078431
0.184314 0.117647 0.078431
0.192157 0.125490 0.086275
0.203922 0.133333 0.094118
0.203922 0.133333 0.094118
0.215686 0.145098 0.098039
0.219608 0.149020 0.101961
0.227451 0.156863 0.109804
0.235294 0.156863 0.113725
0.239216 0.160784 0.117647
0.254902 0.180392 0.125490
0.262745 0.188235 0.133333
0.278431 0.192157 0.141176
0.278431 0.192157 0.141176
0.286275 0.200000 0.149020
0.298039 0.211765 0.160784
0.305882 0.211765 0.164706
0.313725 0.223529 0.164706
0.321569 0.231373 0.172549
0.329412 0.239216 0.180392
0.341176 0.250980 0.192157
0.345098 0.243137 0.188235
0.364706 0.262745 0.207843
0.360784 0.258824 0.203922
0.372549 0.270588 0.215686
0.388235 0.286275 0.231373
0.396078 0.294118 0.239216
0.396078 0.294118 0.239216
0.411765 0.309804 0.250980
0.423529 0.313725 0.258824
0.423529 0.321569 0.262745
0.435294 0.333333 0.274510
0.454902 0.352941 0.294118
0.458824 0.349020 0.294118
0.478431 0.368627 0.313725
0.482353 0.372549 0.317647
0.498039 0.388235 0.333333
0.498039 0.388235 0.333333
0.501961 0.392157 0.337255
0.505882 0.396078 0.341176
0.509804 0.400000 0.345098
0.509804 0.400000 0.345098
0.517647 0.407843 0.352941
0.521569 0.411765 0.356863
0.529412 0.419608 0.364706
0.066667 0.031373 0.011765
0.070588 0.035294 0.015686
0.074510 0.039216 0.019608
0.078431 0.043137 0.023529
0.082353 0.047059 0.019608
0.090196 0.054902 0.027451
0.086275 0.050980 0.023529
0.086275 0.050980 0.023529
0.094118 0.054902 0.019608
0.101961 0.062745 0.027451
0.109804 0.058824 0.027451
0.117647 0.066667 0.035294
0.121569 0.070588 0.039216
0.137255 0.078431 0.050980
0.141176 0.086275 0.050980
0.137255 0.082353 0.047059
0.152941 0.098039 0.062745
0.156863 0.101961 0.066667
0.168627 0.113725 0.078431
0.176471 0.109804 0.070588
0.188235 0.121569 0.082353
0.192157 0.125490 0.086275
0.203922 0.133333 0.094118
0.207843 0.137255 0.098039
0.215686 0.145098 0.098039
0.219608 0.149020 0.101961
0.235294 0.156863 0.113725
0.243137 0.164706 0.121569
0.247059 0.168627 0.125490
0.258824 0.184314 0.129412
0.266667 0.192157 0.137255
0.278431 0.192157 0.141176
0.282353 0.196078 0.145098
0.286275 0.200000 0.149020
0.298039 0.211765 0.160784
0.309804 0.215686 0.168627
0.313725 0.219608 0.172549
0.317647 0.227451 0.168627
0.329412 0.239216 0.180392
0.337255 0.247059 0.188235
0.349020 0.258824 0.200000
0.352941 0.262745 0.203922
0.364706 0.262745 0.207843
0.380392 0.278431 0.223529
0.388235 0.286275 0.231373
0.400000 0.298039 0.239216
0.403922 0.301961 0.243137
0.407843 0.305882 0.247059
0.419608 0.309804 0.258824
0.431373 0.321569 0.270588
0.439216 0.329412 0.278431
0.447059 0.337255 0.286275
0.458824 0.349020 0.298039
0.470588 0.360784 0.309804
0.482353 0.372549 0.321569
0.494118 0.384314 0.333333
0.498039 0.388235 0.337255
0.505882 0.396078 0.345098
0.505882 0.396078 0.345098
0.509804 0.400000 0.349020
0.513725 0.403922 0.352941
0.517647 0.407843 0.356863
0.521569 0.411765 0.360784
0.525490 0.415686 0.364706
0.078431 0.043137 0.023529
0.082353 0.047059 0.027451
0.086275 0.043137 0.019608
0.086275 0.043137 0.019608
0.090196 0.047059 0.023529
0.094118 0.050980 0.027451
0.098039 0.054902 0.031373
0.109804 0.058824 0.027451
0.105882 0.066667 0.031373
0.121569 0.070588 0.039216
0.121569 0.070588 0.039216
0.125490 0.074510 0.043137
0.129412 0.078431 0.043137
0.133333 0.082353 0.047059
0.141176 0.086275 0.050980
0.149020 0.094118 0.058824
0.156863 0.101961 0.066667
0.168627 0.113725 0.070588
0.180392 0.113725 0.074510
0.180392 0.113725 0.074510
0.192157 0.125490 0.086275
0.203922 0.133333 0.094118
0.203922 0.133333 0.086275
0.211765 0.141176 0.094118
0.219608 0.149020 0.101961
0.231373 0.152941 0.109804
0.235294 0.156863 0.113725
0.243137 0.164706 0.121569
0.250980 0.172549 0.129412
0.270588 0.184314 0.133333
0.274510 0.188235 0.137255
0.278431 0.192157 0.141176
0.286275 0.192157 0.145098
0.298039 0.203922 0.156863
0.305882 0.211765 0.164706
0.313725 0.219608 0.172549
0.313725 0.223529 0.164706
0.325490 0.235294 0.176471
0.333333 0.243137 0.184314
0.337255 0.247059 0.188235
0.349020 0.247059 0.192157
0.364706 0.262745 0.207843
0.364706 0.262745 0.207843
0.372549 0.270588 0.215686
0.388235 0.286275 0.231373
0.396078 0.294118 0.239216
0.400000 0.298039 0.243137
0.407843 0.305882 0.250980
0.423529 0.321569 0.262745
0.427451 0.325490 0.266667
0.447059 0.337255 0.282353
0.458824 0.349020 0.294118
0.466667 0.356863 0.301961
0.474510 0.364706 0.309804
0.486275 0.376471 0.321569
0.501961 0.392157 0.337255
0.505882 0.396078 0.341176
0.509804 0.400000 0.345098
0.513725 0.403922 0.352941
0.513725 0.403922 0.352941
0.517647 0.407843 0.356863
0.517647 0.407843 0.356863
0.513725 0.411765 0.356863
0.529412 0.427451 0.372549
0.090196 0.047059 0.023529
0.090196 0.047059 0.023529
0.098039 0.054902 0.031373
0.094118 0.050980 0.027451
0.098039 0.054902 0.031373
0.105882 0.062745 0.039216
0.105882 0.062745 0.039216
0.105882 0.066667 0.031373
0.113725 0.074510 0.039216
0.121569 0.070588 0.039216
0.125490 0.074510 0.043137
0.133333 0.082353 0.047059
0.133333 0.082353 0.047059
0.149020 0.094118 0.058824
0.156863 0.101961 0.066667
0.149020 0.094118 0.058824
0.164706 0.098039 0.058824
0.176471 0.109804 0.070588
0.184314 0.117647 0.078431
0.184314 0.117647 0.078431
0.192157 0.121569 0.082353
0.203922 0.133333 0.094118
0.211765 0.141176 0.101961
0.215686 0.145098 0.105882
0.227451 0.149020 0.105882
0.235294 0.156863 0.113725
0.239216 0.160784 0.117647
0.247059 0.168627 0.125490
0.270588 0.184314 0.133333
0.270588 0.184314 0.133333
0.274510 0.188235 0.137255
0.286275 0.200000 0.149020
0.282353 0.196078 0.145098
0.294118 0.207843 0.156863
0.301961 0.215686 0.164706
0.309804 0.223529 0.172549
0.317647 0.227451 0.168627
0.321569 0.231373 0.172549
0.333333 0.243137 0.184314
0.337255 0.247059 0.188235
0.356863 0.254902 0.200000
0.360784 0.258824 0.203922
0.372549 0.270588 0.215686
0.376471 0.274510 0.219608
0.388235 0.286275 0.227451
0.400000 0.298039 0.243137
0.403922 0.301961 0.243137
0.415686 0.313725 0.254902
0.423529 0.321569 0.262745
0.443137 0.333333 0.278431
0.443137 0.333333 0.278431
0.454902 0.345098 0.290196
0.462745 0.352941 0.298039
0.474510 0.364706 0.309804
0.486275 0.376471 0.321569
0.490196 0.380392 0.325490
0.509804 0.400000 0.345098
0.513725 0.403922 0.349020
0.513725 0.403922 0.352941
0.517647 0.407843 0.356863
0.513725 0.403922 0.352941
0.517647 0.407843 0.356863
0.525490 0.415686 0.364706
0.537255 0.427451 0.376471
0.094118 0.054902 0.019608
0.098039 0.058824 0.023529
0.105882 0.066667 0.031373
0.105882 0.066667 0.031373
0.105882 0.066667 0.031373
0.105882 0.066667 0.031373
0.113725 0.074510 0.039216
0.125490 0.074510 0.043137
0.125490 0.074510 0.043137
0.133333 0.082353 0.047059
0.141176 0.086275 0.050980
0.145098 0.090196 0.054902
0.149020 0.094118 0.058824
0.149020 0.094118 0.058824
0.156863 0.101961 0.066667
0.156863 0.101961 0.066667
0.176471 0.109804 0.070588
0.184314 0.117647 0.078431
0.192157 0.125490 0.086275
0.196078 0.125490 0.086275
0.203922 0.133333 0.086275
0.211765 0.141176 0.094118
0.215686 0.145098 0.098039
0.219608 0.149020 0.101961
0.231373 0.152941 0.109804
0.239216 0.160784 0.117647
0.247059 0.168627 0.125490
0.247059 0.172549 0.117647
0.262745 0.176471 0.125490
0.274510 0.188235 0.137255
0.282353 0.196078 0.145098
0.282353 0.196078 0.145098
0.290196 0.196078 0.149020
0.301961 0.207843 0.160784
0.313725 0.219608 0.172549
0.313725 0.223529 0.164706
0.317647 0.227451 0.168627
0.325490 0.235294 0.176471
0.337255 0.247059 0.188235
0.341176 0.250980 0.192157
0.360784 0.258824 0.203922
0.368627 0.266667 0.211765
0.368627 0.266667 0.211765
0.380392 0.278431 0.223529
0.396078 0.294118 0.239216
0.400000 0.298039 0.243137
0.403922 0.301961 0.247059
0.411765 0.309804 0.254902
0.427451 0.317647 0.266667
0.435294 0.325490 0.274510
0.443137 0.333333 0.282353
0.458824 0.349020 0.298039
0.466667 0.356863 0.305882
0.478431 0.368627 0.317647
0.486275 0.376471 0.325490
0.498039 0.388235 0.337255
0.505882 0.396078 0.345098
0.505882 0.396078 0.345098
0.509804 0.400000 0.349020
0.517647 0.407843 0.356863
0.521569 0.411765 0.360784
0.521569 0.411765 0.360784
0.525490 0.415686 0.364706
0.537255 0.427451 0.376471
0.098039 0.058824 0.023529
0.113725 0.062745 0.031373
0.117647 0.066667 0.035294
0.121569 0.070588 0.039216
0.125490 0.074510 0.043137
0.129412 0.078431 0.047059
0.133333 0.082353 0.050980
0.129412 0.078431 0.043137
0.137255 0.082353 0.047059
0.141176 0.086275 0.050980
0.145098 0.090196 0.054902
0.149020 0.094118 0.058824
0.156863 0.101961 0.066667
0.156863 0.101961 0.066667
0.164706 0.109804 0.074510
0.172549 0.105882 0.074510
0.184314 0.117647 0.078431
0.188235 0.121569 0.082353
0.192157 0.125490 0.086275
0.196078 0.133333 0.082353
0.207843 0.137255 0.090196
0.211765 0.141176 0.094118
0.219608 0.149020 0.101961
0.227451 0.156863 0.109804
0.235294 0.156863 0.113725
0.243137 0.164706 0.121569
0.247059 0.172549 0.117647
0.258824 0.184314 0.129412
0.270588 0.184314 0.133333
0.278431 0.192157 0.141176
0.282353 0.196078 0.145098
0.286275 0.200000 0.149020
0.294118 0.203922 0.145098
0.305882 0.215686 0.156863
0.313725 0.223529 0.164706
0.317647 0.227451 0.168627
0.321569 0.231373 0.172549
0.329412 0.239216 0.180392
0.337255 0.247059 0.188235
0.349020 0.258824 0.200000
0.360784 0.258824 0.203922
0.368627 0.266667 0.211765
0.372549 0.270588 0.215686
0.384314 0.282353 0.227451
0.392157 0.290196 0.235294
0.407843 0.305882 0.250980
0.419608 0.309804 0.258824
0.419608 0.309804 0.254902
0.423529 0.313725 0.262745
0.435294 0.325490 0.270588
0.447059 0.337255 0.282353
0.458824 0.349020 0.294118
0.466667 0.356863 0.301961
0.474510 0.364706 0.309804
0.486275 0.376471 0.321569
0.494118 0.384314 0.329412
0.505882 0.396078 0.341176
0.517647 0.407843 0.356863
0.513725 0.403922 0.352941
0.517647 0.407843 0.356863
0.517647 0.407843 0.356863
0.525490 0.415686 0.364706
0.529412 0.419608 0.368627
0.537255 0.427451 0.376471
0.117647 0.066667 0.035294
0.125490 0.074510 0.043137
0.125490 0.074510 0.043137
0.125490 0.074510 0.039216
0.133333 0.082353 0.047059
0.137255 0.086275 0.050980
0.145098 0.090196 0.054902
0.141176 0.086275 0.050980
0.149020 0.094118 0.058824
0.160784 0.105882 0.070588
0.152941 0.098039 0.062745
0.160784 0.105882 0.070588
0.168627 0.101961 0.070588
0.172549 0.105882 0.066667
0.176471 0.109804 0.070588
0.176471 0.109804 0.070588
0.192157 0.125490 0.086275
0.200000 0.129412 0.082353
0.203922 0.133333 0.086275
0.207843 0.137255 0.090196
0.215686 0.145098 0.098039
0.219608 0.149020 0.101961
0.227451 0.149020 0.105882
0.235294 0.156863 0.113725
0.235294 0.160784 0.105882
0.247059 0.172549 0.117647
0.250980 0.176471 0.121569
0.254902 0.180392 0.125490
0.270588 0.184314 0.133333
0.278431 0.192157 0.141176
0.290196 0.203922 0.152941
0.286275 0.200000 0.149020
0.294118 0.207843 0.156863
0.309804 0.219608 0.160784
0.321569 0.231373 0.172549
0.325490 0.235294 0.176471
0.329412 0.239216 0.180392
0.337255 0.247059 0.188235
0.352941 0.250980 0.196078
0.356863 0.254902 0.200000
0.360784 0.258824 0.203922
0.376471 0.274510 0.219608
0.376471 0.274510 0.219608
0.384314 0.282353 0.227451
0.403922 0.301961 0.247059
0.403922 0.301961 0.247059
0.407843 0.305882 0.250980
0.427451 0.317647 0.266667
0.439216 0.329412 0.274510
0.439216 0.329412 0.274510
0.443137 0.333333 0.278431
0.470588 0.360784 0.305882
0.466667 0.356863 0.301961
0.474510 0.364706 0.313725
0.490196 0.380392 0.329412
0.498039 0.388235 0.337255
0.513725 0.403922 0.352941
0.517647 0.407843 0.356863
0.513725 0.403922 0.352941
0.513725 0.403922 0.352941
0.513725 0.403922 0.352941
0.517647 0.407843 0.356863
0.517647 0.407843 0.356863
0.513725 0.411765 0.356863
0.145098 0.086275 0.058824
0.145098 0.086275 0.058824
0.152941 0.098039 0.062745
0.152941 0.098039 0.062745
0.149020 0.094118 0.058824
0.156863 0.101961 0.066667
0.156863 0.101961 0.066667
0.164706 0.109804 0.074510
0.168627 0.113725 0.078431
0.168627 0.113725 0.078431
0.172549 0.117647 0.082353
0.184314 0.117647 0.078431
0.188235 0.121569 0.082353
0.192157 0.125490 0.086275
0.196078 0.129412 0.090196
0.200000 0.133333 0.094118
0.207843 0.137255 0.090196
0.211765 0.141176 0.094118
0.215686 0.145098 0.098039
0.223529 0.152941 0.105882
0.231373 0.152941 0.109804
0.235294 0.156863 0.113725
0.239216 0.164706 0.109804
0.247059 0.172549 0.117647
0.262745 0.176471 0.125490
0.266667 0.180392 0.129412
0.266667 0.180392 0.129412
0.282353 0.196078 0.145098
0.282353 0.196078 0.145098
0.294118 0.200000 0.152941
0.301961 0.211765 0.152941
0.301961 0.211765 0.152941
0.313725 0.223529 0.164706
0.317647 0.227451 0.168627
0.325490 0.235294 0.176471
0.329412 0.239216 0.180392
0.345098 0.243137 0.188235
0.349020 0.247059 0.192157
0.360784 0.258824 0.203922
0.364706 0.262745 0.207843
0.372549 0.270588 0.215686
0.376471 0.274510 0.219608
0.388235 0.286275 0.227451
0.400000 0.298039 0.239216
0.407843 0.298039 0.243137
0.415686 0.305882 0.250980
0.427451 0.317647 0.262745
0.431373 0.321569 0.266667
0.439216 0.329412 0.274510
0.447059 0.337255 0.282353
0.458824 0.349020 0.294118
0.470588 0.360784 0.305882
0.478431 0.368627 0.313725
0.490196 0.380392 0.325490
0.498039 0.388235 0.333333
0.509804 0.400000 0.345098
0.517647 0.407843 0.352941
0.521569 0.411765 0.356863
0.525490 0.415686 0.360784
0.525490 0.415686 0.360784
0.525490 0.415686 0.360784
0.529412 0.419608 0.364706
0.537255 0.427451 0.372549
0.541176 0.431373 0.376471
0.156863 0.101961 0.066667
0.156863 0.101961 0.066667
0.156863 0.101961 0.066667
0.168627 0.101961 0.070588
0.176471 0.109804 0.078431
0.176471 0.109804 0.078431
0.176471 0.109804 0.078431
0.176471 0.109804 0.078431
0.180392 0.113725 0.074510
0.188235 0.121569 0.082353
0.192157 0.125490 0.086275
0.192157 0.125490 0.086275
0.196078 0.125490 0.086275
0.196078 0.125490 0.086275
0.203922 0.133333 0.094118
0.215686 0.145098 0.098039
0.211765 0.141176 0.094118
0.223529 0.152941 0.105882
0.227451 0.156863 0.109804
0.239216 0.160784 0.117647
0.235294 0.156863 0.113725
0.239216 0.160784 0.117647
0.243137 0.168627 0.113725
0.258824 0.172549 0.121569
0.270588 0.184314 0.133333
0.274510 0.188235 0.137255
0.278431 0.192157 0.141176
0.290196 0.203922 0.152941
0.294118 0.207843 0.156863
0.301961 0.211765 0.152941
0.305882 0.215686 0.156863
0.313725 0.223529 0.164706
0.321569 0.231373 0.172549
0.329412 0.239216 0.180392
0.329412 0.239216 0.180392
0.341176 0.239216 0.184314
0.345098 0.243137 0.188235
0.352941 0.250980 0.196078
0.360784 0.258824 0.203922
0.368627 0.266667 0.211765
0.376471 0.274510 0.219608
0.396078 0.294118 0.239216
0.392157 0.290196 0.231373
0.403922 0.294118 0.239216
0.411765 0.301961 0.247059
0.423529 0.313725 0.258824
0.427451 0.317647 0.262745
0.435294 0.325490 0.270588
0.450980 0.341176 0.286275
0.454902 0.345098 0.290196
0.466667 0.356863 0.301961
0.474510 0.364706 0.309804
0.482353 0.372549 0.317647
0.490196 0.380392 0.325490
0.501961 0.392157 0.337255
0.517647 0.407843 0.352941
0.525490 0.415686 0.360784
0.529412 0.419608 0.364706
0.529412 0.419608 0.368627
0.529412 0.419608 0.368627
0.533333 0.423529 0.372549
0.537255 0.427451 0.376471
0.541176 0.431373 0.380392
0.549020 0.439216 0.388235
0.172549 0.105882 0.074510
0.172549 0.105882 0.074510
0.176471 0.109804 0.078431
0.176471 0.109804 0.070588
0.176471 0.109804 0.070588
0.180392 0.113725 0.074510
0.184314 0.117647 0.078431
0.188235 0.121569 0.082353
0.192157 0.125490 0.086275
0.192157 0.125490 0.086275
0.203922 0.137255 0.098039
0.207843 0.137255 0.098039
0.207843 0.137255 0.098039
0.211765 0.141176 0.094118
0.215686 0.145098 0.098039
0.223529 0.152941 0.105882
0.223529 0.152941 0.105882
0.227451 0.156863 0.109804
0.239216 0.160784 0.117647
0.243137 0.164706 0.121569
0.250980 0.176471 0.121569
0.250980 0.176471 0.121569
0.262745 0.176471 0.125490
0.270588 0.184314 0.133333
0.278431 0.192157 0.141176
0.278431 0.192157 0.141176
0.286275 0.200000 0.149020
0.294118 0.207843 0.156863
0.301961 0.211765 0.152941
0.305882 0.215686 0.156863
0.309804 0.219608 0.160784
0.321569 0.231373 0.172549
0.321569 0.231373 0.172549
0.337255 0.235294 0.180392
0.341176 0.239216 0.184314
0.349020 0.247059 0.192157
0.356863 0.254902 0.200000
0.360784 0.258824 0.203922
0.364706 0.262745 0.207843
0.376471 0.274510 0.219608
0.384314 0.282353 0.223529
0.388235 0.286275 0.227451
0.396078 0.294118 0.235294
0.411765 0.309804 0.250980
0.419608 0.309804 0.254902
0.435294 0.325490 0.270588
0.439216 0.329412 0.274510
0.435294 0.325490 0.270588
0.450980 0.341176 0.286275
0.462745 0.352941 0.298039
0.462745 0.352941 0.298039
0.474510 0.364706 0.309804
0.490196 0.380392 0.325490
0.501961 0.392157 0.337255
0.505882 0.396078 0.341176
0.513725 0.403922 0.349020
0.525490 0.415686 0.364706
0.533333 0.423529 0.372549
0.533333 0.423529 0.372549
0.533333 0.423529 0.372549
0.537255 0.427451 0.376471
0.541176 0.431373 0.380392
0.549020 0.439216 0.388235
0.549020 0.439216 0.388235
0.184314 0.117647 0.078431
0.184314 0.117647 0.078431
0.184314 0.117647 0.078431
0.188235 0.121569 0.082353
0.196078 0.125490 0.086275
0.200000 0.129412 0.090196
0.200000 0.129412 0.082353
0.203922 0.133333 0.086275
0.203922 0.133333 0.094118
0.207843 0.137255 0.098039
0.215686 0.145098 0.105882
0.219608 0.149020 0.101961
0.215686 0.145098 0.098039
0.223529 0.145098 0.101961
0.231373 0.152941 0.109804
0.239216 0.160784 0.117647
0.235294 0.156863 0.113725
0.247059 0.168627 0.125490
0.250980 0.176471 0.121569
0.250980 0.176471 0.121569
0.254902 0.180392 0.125490
0.270588 0.184314 0.133333
0.270588 0.184314 0.133333
0.278431 0.192157 0.141176
0.286275 0.200000 0.149020
0.294118 0.207843 0.156863
0.301961 0.207843 0.160784
0.301961 0.207843 0.160784
0.309804 0.219608 0.160784
0.313725 0.223529 0.164706
0.321569 0.231373 0.172549
0.325490 0.235294 0.176471
0.341176 0.239216 0.184314
0.345098 0.243137 0.188235
0.345098 0.243137 0.188235
0.352941 0.250980 0.196078
0.356863 0.254902 0.200000
0.364706 0.262745 0.203922
0.372549 0.270588 0.211765
0.376471 0.274510 0.215686
0.388235 0.286275 0.227451
0.400000 0.290196 0.235294
0.407843 0.298039 0.243137
0.415686 0.305882 0.250980
0.423529 0.313725 0.258824
0.431373 0.321569 0.266667
0.439216 0.329412 0.274510
0.447059 0.337255 0.282353
0.458824 0.349020 0.294118
0.462745 0.352941 0.298039
0.470588 0.360784 0.305882
0.482353 0.372549 0.317647
0.486275 0.376471 0.321569
0.494118 0.384314 0.329412
0.509804 0.400000 0.345098
0.521569 0.411765 0.356863
0.533333 0.423529 0.368627
0.537255 0.427451 0.372549
0.537255 0.427451 0.372549
0.533333 0.423529 0.368627
0.541176 0.431373 0.380392
0.549020 0.439216 0.388235
0.552941 0.443137 0.392157
0.560784 0.450980 0.400000
0.196078 0.125490 0.086275
0.196078 0.125490 0.086275
0.207843 0.137255 0.098039
0.207843 0.137255 0.098039
0.207843 0.137255 0.098039
0.207843 0.137255 0.098039
0.207843 0.137255 0.090196
0.215686 0.145098 0.098039
0.215686 0.145098 0.098039
0.223529 0.145098 0.101961
0.227451 0.149020 0.105882
0.235294 0.156863 0.113725
0.231373 0.152941 0.109804
0.243137 0.164706 0.121569
0.239216 0.160784 0.117647
0.247059 0.168627 0.125490
0.250980 0.176471 0.121569
0.250980 0.176471 0.121569
0.258824 0.184314 0.129412
0.270588 0.184314 0.133333
0.278431 0.192157 0.141176
0.278431 0.192157 0.141176
0.282353 0.196078 0.145098
0.286275 0.200000 0.149020
0.298039 0.211765 0.160784
0.301961 0.207843 0.160784
0.301961 0.211765 0.152941
0.309804 0.219608 0.160784
0.317647 0.227451 0.168627
0.321569 0.231373 0.172549
0.321569 0.231373 0.172549
0.329412 0.239216 0.180392
0.333333 0.243137 0.184314
0.349020 0.247059 0.192157
0.352941 0.250980 0.196078
0.360784 0.258824 0.203922
0.368627 0.266667 0.211765
0.372549 0.270588 0.215686
0.380392 0.278431 0.223529
0.392157 0.290196 0.235294
0.396078 0.286275 0.231373
0.403922 0.294118 0.239216
0.411765 0.301961 0.250980
0.423529 0.313725 0.258824
0.427451 0.317647 0.262745
0.435294 0.325490 0.270588
0.439216 0.329412 0.274510
0.454902 0.345098 0.290196
0.462745 0.352941 0.298039
0.466667 0.356863 0.301961
0.478431 0.368627 0.313725
0.486275 0.376471 0.321569
0.494118 0.384314 0.329412
0.505882 0.396078 0.341176
0.513725 0.403922 0.349020
0.525490 0.415686 0.360784
0.537255 0.427451 0.372549
0.541176 0.431373 0.376471
0.545098 0.435294 0.380392
0.545098 0.435294 0.380392
0.545098 0.435294 0.384314
0.549020 0.439216 0.388235
0.556863 0.447059 0.396078
0.560784 0.450980 0.400000
0.207843 0.137255 0.090196
0.211765 0.141176 0.094118
0.215686 0.145098 0.098039
0.219608 0.141176 0.098039
0.223529 0.145098 0.101961
0.223529 0.145098 0.101961
0.227451 0.149020 0.105882
0.231373 0.152941 0.109804
0.235294 0.156863 0.113725
0.235294 0.156863 0.113725
0.239216 0.160784 0.117647
0.243137 0.164706 0.121569
0.243137 0.164706 0.121569
0.247059 0.168627 0.125490
0.254902 0.180392 0.125490
0.262745 0.188235 0.133333
0.262745 0.188235 0.133333
0.274510 0.188235 0.137255
0.278431 0.192157 0.141176
0.278431 0.192157 0.141176
0.282353 0.196078 0.145098
0.286275 0.200000 0.149020
0.282353 0.196078 0.145098
0.294118 0.207843 0.156863
0.305882 0.215686 0.156863
0.317647 0.227451 0.168627
0.317647 0.227451 0.168627
0.317647 0.227451 0.168627
0.325490 0.235294 0.176471
0.329412 0.239216 0.180392
0.333333 0.243137 0.184314
0.337255 0.247059 0.188235
0.352941 0.250980 0.196078
0.356863 0.254902 0.200000
0.360784 0.258824 0.203922
0.364706 0.262745 0.207843
0.376471 0.274510 0.219608
0.380392 0.278431 0.223529
0.384314 0.282353 0.227451
0.388235 0.286275 0.231373
0.403922 0.294118 0.239216
0.407843 0.298039 0.243137
0.419608 0.309804 0.254902
0.427451 0.317647 0.262745
0.435294 0.325490 0.270588
0.443137 0.333333 0.278431
0.450980 0.341176 0.286275
0.450980 0.341176 0.286275
0.462745 0.352941 0.298039
0.470588 0.360784 0.305882
0.482353 0.372549 0.317647
0.494118 0.384314 0.329412
0.498039 0.388235 0.333333
