desktop/public/luts/sepia4.cube
#Generated with IWLTBAP LUT Generator
#Website: https://luts.iwltbap.com
TITLE "Sepia 4"
LUT_3D_SIZE 4
0.054902 0.023529 0.011765
0.184314 0.117647 0.078431
0.360784 0.258824 0.203922
0.525490 0.415686 0.364706
0.325490 0.235294 0.176471
0.392157 0.290196 0.235294
0.482353 0.372549 0.317647
0.623529 0.521569 0.466667
0.647059 0.556863 0.498039
0.662745 0.568627 0.521569
0.701961 0.623529 0.580392
0.780392 0.713725 0.674510
0.890196 0.862745 0.839216
0.898039 0.870588 0.847059
0.909804 0.890196 0.874510
0.945098 0.929412 0.917647
0.113725 0.062745 0.031373
0.215686 0.145098 0.098039
0.380392 0.278431 0.219608
0.541176 0.431373 0.380392
0.345098 0.254902 0.196078
0.400000 0.298039 0.243137
0.494118 0.384314 0.329412
0.627451 0.525490 0.470588
0.650980 0.556863 0.509804
0.674510 0.580392 0.533333
0.705882 0.627451 0.584314
0.788235 0.721569 0.690196
0.905882 0.878431 0.854902
0.901961 0.870588 0.858824
0.921569 0.901961 0.886275
0.952941 0.937255 0.925490
0.239216 0.164706 0.109804
0.282353 0.196078 0.145098
0.380392 0.278431 0.223529
0.545098 0.443137 0.388235
0.407843 0.305882 0.247059
0.431373 0.321569 0.266667
0.498039 0.388235 0.333333
0.635294 0.545098 0.486275
0.643137 0.549020 0.501961
0.686275 0.600000 0.556863
0.729412 0.650980 0.607843
0.800000 0.745098 0.709804
0.925490 0.894118 0.882353
0.925490 0.905882 0.890196
0.945098 0.925490 0.913725
0.972549 0.956863 0.952941
0.427451 0.325490 0.266667
0.447059 0.337255 0.282353
0.533333 0.423529 0.368627
0.627451 0.533333 0.486275
0.545098 0.443137 0.388235
0.568627 0.466667 0.411765
0.607843 0.505882 0.450980
0.690196 0.603922 0.560784
0.717647 0.639216 0.596078
0.733333 0.662745 0.623529
0.784314 0.717647 0.686275
0.823529 0.772549 0.741176
0.909804 0.890196 0.874510
0.921569 0.890196 0.878431
0.941176 0.925490 0.913725
1.000000 1.000000 1.000000
