desktop/public/luts/sepia4.cube
#Generated with IWLTBAP LUT Generator
#Website: https://luts.iwltbap.com
TITLE "Sepia 4"
LUT_3D_SIZE 8
0.054902 0.023529 0.011765
0.082353 0.047059 0.019608
0.160784 0.105882 0.070588
0.231373 0.152941 0.109804
0.309804 0.219608 0.160784
0.392157 0.290196 0.235294
0.482353 0.372549 0.317647
0.525490 0.415686 0.364706
0.156863 0.101961 0.066667
0.188235 0.121569 0.082353
0.227451 0.156863 0.109804
0.290196 0.203922 0.152941
0.345098 0.243137 0.188235
0.423529 0.313725 0.258824
0.501961 0.392157 0.337255
0.549020 0.439216 0.388235
0.290196 0.196078 0.149020
0.305882 0.215686 0.156863
0.337255 0.247059 0.188235
0.376471 0.274510 0.219608
0.419608 0.309804 0.254902
0.482353 0.372549 0.317647
0.552941 0.450980 0.396078
0.588235 0.486275 0.431373
0.419608 0.309804 0.254902
0.439216 0.329412 0.274510
0.447059 0.337255 0.282353
0.474510 0.364706 0.309804
0.517647 0.407843 0.356863
0.564706 0.462745 0.407843
0.627451 0.533333 0.486275
0.658824 0.572549 0.521569
0.549020 0.447059 0.392157
0.560784 0.458824 0.403922
0.572549 0.470588 0.415686
0.584314 0.482353 0.427451
0.615686 0.513725 0.458824
0.666667 0.572549 0.533333
0.701961 0.623529 0.580392
0.733333 0.662745 0.623529
0.686275 0.600000 0.549020
0.694118 0.607843 0.556863
0.701961 0.615686 0.572549
0.709804 0.623529 0.580392
0.717647 0.639216 0.596078
0.741176 0.670588 0.631373
0.780392 0.713725 0.682353
0.792157 0.737255 0.701961
0.796078 0.737255 0.709804
0.803922 0.749020 0.713725
0.803922 0.745098 0.717647
0.803922 0.752941 0.721569
0.811765 0.760784 0.729412
0.823529 0.780392 0.756863
0.847059 0.803922 0.780392
0.866667 0.831373 0.811765
0.890196 0.862745 0.839216
0.894118 0.862745 0.850980
0.898039 0.870588 0.847059
0.905882 0.878431 0.854902
0.913725 0.882353 0.870588
0.917647 0.898039 0.882353
0.937255 0.917647 0.901961
0.945098 0.929412 0.917647
0.062745 0.027451 0.007843
0.098039 0.058824 0.023529
0.160784 0.105882 0.070588
0.239216 0.160784 0.117647
0.298039 0.211765 0.160784
0.384314 0.282353 0.227451
0.470588 0.360784 0.305882
0.525490 0.415686 0.364706
0.152941 0.098039 0.062745
0.192157 0.125490 0.086275
0.235294 0.156863 0.113725
0.290196 0.203922 0.152941
0.345098 0.254902 0.196078
0.419608 0.309804 0.258824
0.498039 0.388235 0.333333
0.545098 0.435294 0.380392
0.290196 0.203922 0.152941
0.313725 0.223529 0.164706
0.337255 0.247059 0.188235
0.376471 0.274510 0.219608
0.423529 0.313725 0.258824
0.482353 0.372549 0.317647
0.556863 0.447059 0.396078
0.588235 0.486275 0.431373
0.415686 0.313725 0.254902
0.439216 0.329412 0.274510
0.447059 0.337255 0.282353
0.478431 0.368627 0.313725
0.513725 0.403922 0.352941
0.560784 0.450980 0.400000
0.623529 0.529412 0.482353
0.658824 0.572549 0.521569
0.545098 0.443137 0.388235
0.564706 0.462745 0.407843
0.576471 0.474510 0.419608
0.592157 0.490196 0.435294
0.623529 0.521569 0.466667
0.670588 0.576471 0.529412
0.705882 0.627451 0.584314
0.733333 0.662745 0.623529
0.694118 0.607843 0.556863
0.701961 0.615686 0.572549
0.698039 0.611765 0.568627
0.705882 0.627451 0.584314
0.717647 0.639216 0.596078
0.737255 0.666667 0.627451
0.780392 0.713725 0.674510
0.800000 0.745098 0.709804
0.800000 0.745098 0.709804
0.803922 0.745098 0.717647
0.803922 0.752941 0.721569
0.803922 0.752941 0.721569
0.819608 0.768627 0.737255
0.827451 0.776471 0.752941
0.843137 0.807843 0.780392
0.866667 0.831373 0.811765
0.898039 0.870588 0.847059
0.901961 0.870588 0.858824
0.901961 0.870588 0.858824
0.905882 0.874510 0.862745
0.913725 0.882353 0.870588
0.921569 0.901961 0.886275
0.933333 0.913725 0.898039
0.952941 0.937255 0.925490
0.090196 0.047059 0.023529
0.117647 0.066667 0.035294
0.180392 0.113725 0.074510
0.250980 0.172549 0.129412
0.321569 0.231373 0.172549
0.392157 0.290196 0.235294
0.478431 0.368627 0.313725
0.537255 0.427451 0.376471
0.176471 0.109804 0.070588
0.207843 0.137255 0.098039
0.247059 0.172549 0.117647
0.298039 0.207843 0.149020
0.349020 0.247059 0.192157
0.427451 0.317647 0.262745
0.501961 0.392157 0.337255
0.552941 0.443137 0.392157
0.294118 0.207843 0.149020
0.321569 0.231373 0.172549
0.341176 0.250980 0.192157
0.380392 0.278431 0.223529
0.427451 0.317647 0.262745
0.482353 0.372549 0.317647
0.560784 0.450980 0.400000
0.603922 0.501961 0.447059
0.427451 0.317647 0.262745
0.447059 0.337255 0.282353
0.450980 0.341176 0.286275
0.482353 0.372549 0.317647
0.517647 0.407843 0.356863
0.576471 0.474510 0.419608
0.635294 0.541176 0.494118
0.666667 0.580392 0.529412
0.556863 0.447059 0.396078
0.572549 0.470588 0.415686
0.576471 0.474510 0.419608
0.596078 0.494118 0.439216
0.623529 0.533333 0.474510
0.666667 0.572549 0.525490
0.705882 0.627451 0.584314
0.737255 0.666667 0.627451
0.694118 0.607843 0.556863
0.705882 0.619608 0.576471
0.705882 0.627451 0.584314
0.705882 0.627451 0.584314
0.721569 0.643137 0.600000
0.741176 0.670588 0.631373
0.780392 0.713725 0.682353
0.803922 0.749020 0.713725
0.803922 0.745098 0.717647
0.803922 0.752941 0.721569
0.803922 0.752941 0.721569
0.811765 0.760784 0.729412
0.823529 0.772549 0.741176
0.835294 0.792157 0.768627
0.839216 0.796078 0.772549
0.874510 0.839216 0.819608
0.901961 0.870588 0.858824
0.905882 0.878431 0.854902
0.905882 0.874510 0.862745
0.909804 0.878431 0.866667
0.917647 0.886275 0.874510
0.921569 0.901961 0.886275
0.941176 0.921569 0.909804
0.956863 0.941176 0.929412
0.145098 0.090196 0.054902
0.152941 0.098039 0.062745
0.188235 0.121569 0.082353
0.254902 0.180392 0.125490
0.329412 0.239216 0.180392
0.407843 0.305882 0.247059
0.486275 0.376471 0.325490
0.541176 0.439216 0.384314
0.215686 0.145098 0.098039
0.231373 0.152941 0.109804
0.243137 0.168627 0.113725
0.309804 0.215686 0.168627
0.364706 0.262745 0.207843
0.431373 0.321569 0.266667
0.509804 0.400000 0.345098
0.564706 0.454902 0.403922
0.317647 0.227451 0.168627
0.333333 0.243137 0.184314
0.345098 0.243137 0.188235
0.388235 0.286275 0.231373
0.439216 0.329412 0.274510
0.490196 0.380392 0.325490
0.564706 0.462745 0.407843
0.611765 0.505882 0.462745
0.435294 0.333333 0.278431
0.447059 0.337255 0.282353
0.458824 0.349020 0.294118
0.486275 0.376471 0.321569
0.529412 0.419608 0.368627
0.576471 0.474510 0.419608
0.639216 0.545098 0.498039
0.674510 0.588235 0.545098
0.568627 0.466667 0.411765
0.584314 0.482353 0.427451
0.592157 0.490196 0.435294
0.596078 0.494118 0.439216
0.635294 0.541176 0.494118
0.674510 0.580392 0.533333
0.717647 0.639216 0.596078
0.741176 0.670588 0.631373
0.694118 0.607843 0.564706
0.701961 0.623529 0.580392
0.701961 0.623529 0.580392
0.709804 0.631373 0.588235
0.729412 0.650980 0.607843
0.745098 0.674510 0.635294
0.784314 0.717647 0.686275
0.807843 0.749020 0.721569
0.796078 0.737255 0.709804
0.811765 0.752941 0.725490
0.807843 0.756863 0.725490
0.815686 0.764706 0.733333
0.827451 0.776471 0.745098
0.827451 0.784314 0.760784
0.847059 0.811765 0.784314
0.874510 0.847059 0.823529
0.905882 0.878431 0.854902
0.905882 0.874510 0.862745
0.913725 0.882353 0.870588
0.925490 0.894118 0.882353
0.917647 0.898039 0.882353
0.925490 0.905882 0.890196
0.937255 0.921569 0.909804
0.960784 0.945098 0.941176
0.207843 0.137255 0.098039
0.215686 0.145098 0.098039
0.235294 0.156863 0.113725
0.262745 0.188235 0.133333
0.325490 0.235294 0.176471
0.407843 0.305882 0.247059
0.501961 0.392157 0.341176
0.541176 0.439216 0.384314
0.262745 0.176471 0.125490
0.274510 0.188235 0.137255
0.286275 0.200000 0.149020
0.313725 0.223529 0.164706
0.368627 0.266667 0.207843
0.439216 0.329412 0.274510
0.517647 0.407843 0.352941
0.576471 0.466667 0.411765
0.349020 0.247059 0.192157
0.364706 0.262745 0.207843
0.376471 0.274510 0.215686
0.396078 0.294118 0.235294
0.439216 0.329412 0.274510
0.498039 0.388235 0.333333
0.560784 0.458824 0.403922
0.615686 0.513725 0.458824
0.439216 0.329412 0.278431
0.458824 0.349020 0.294118
0.478431 0.368627 0.313725
0.494118 0.384314 0.333333
0.533333 0.423529 0.372549
0.580392 0.478431 0.423529
0.635294 0.541176 0.494118
0.674510 0.588235 0.545098
0.560784 0.458824 0.403922
0.588235 0.486275 0.431373
0.596078 0.494118 0.439216
0.611765 0.509804 0.454902
0.635294 0.541176 0.494118
0.678431 0.584314 0.537255
0.717647 0.639216 0.596078
0.749020 0.678431 0.639216
0.701961 0.615686 0.572549
0.713725 0.635294 0.592157
0.709804 0.631373 0.588235
0.725490 0.647059 0.603922
0.733333 0.662745 0.623529
0.752941 0.682353 0.643137
0.792157 0.725490 0.694118
0.819608 0.760784 0.733333
0.807843 0.749020 0.721569
0.811765 0.760784 0.729412
0.815686 0.764706 0.733333
0.819608 0.768627 0.737255
0.827451 0.776471 0.745098
0.839216 0.796078 0.772549
0.858824 0.815686 0.792157
0.882353 0.854902 0.831373
0.909804 0.890196 0.874510
0.921569 0.890196 0.878431
0.921569 0.890196 0.878431
0.921569 0.901961 0.886275
0.929412 0.909804 0.894118
0.937255 0.917647 0.901961
0.945098 0.929412 0.917647
0.968627 0.952941 0.949020
0.266667 0.180392 0.129412
0.274510 0.188235 0.137255
0.290196 0.203922 0.152941
0.317647 0.227451 0.168627
0.360784 0.258824 0.203922
0.407843 0.305882 0.247059
0.494118 0.384314 0.329412
0.552941 0.450980 0.392157
0.301961 0.211765 0.152941
0.317647 0.227451 0.168627
0.329412 0.239216 0.180392
0.360784 0.258824 0.203922
0.388235 0.286275 0.227451
0.439216 0.329412 0.274510
0.521569 0.411765 0.356863
0.580392 0.470588 0.419608
0.388235 0.286275 0.231373
0.400000 0.298039 0.239216
0.411765 0.309804 0.250980
0.431373 0.321569 0.266667
0.450980 0.341176 0.286275
0.498039 0.388235 0.333333
0.572549 0.462745 0.411765
0.615686 0.521569 0.474510
0.478431 0.368627 0.313725
0.498039 0.388235 0.333333
0.509804 0.400000 0.349020
0.529412 0.419608 0.368627
0.549020 0.439216 0.388235
0.580392 0.478431 0.423529
0.635294 0.541176 0.494118
0.682353 0.596078 0.552941
0.568627 0.466667 0.411765
0.584314 0.482353 0.427451
0.603922 0.501961 0.447059
0.623529 0.529412 0.482353
0.647059 0.552941 0.505882
0.678431 0.592157 0.541176
0.717647 0.639216 0.596078
0.749020 0.678431 0.639216
0.686275 0.600000 0.556863
0.698039 0.611765 0.568627
0.701961 0.623529 0.580392
0.725490 0.647059 0.603922
0.745098 0.674510 0.635294
0.760784 0.690196 0.650980
0.792157 0.737255 0.701961
0.831373 0.772549 0.745098
0.807843 0.756863 0.725490
0.811765 0.760784 0.729412
0.823529 0.772549 0.741176
0.827451 0.776471 0.752941
0.835294 0.792157 0.768627
0.843137 0.800000 0.776471
0.862745 0.827451 0.807843
0.894118 0.862745 0.850980
0.917647 0.898039 0.882353
0.925490 0.905882 0.890196
0.921569 0.901961 0.886275
0.933333 0.913725 0.901961
0.937255 0.917647 0.905882
0.945098 0.929412 0.917647
0.956863 0.941176 0.929412
0.968627 0.964706 0.956863
0.337255 0.247059 0.188235
0.337255 0.247059 0.188235
0.364706 0.262745 0.207843
0.392157 0.290196 0.231373
0.411765 0.309804 0.250980
0.458824 0.356863 0.298039
0.521569 0.411765 0.356863
0.564706 0.462745 0.407843
0.376471 0.274510 0.219608
0.384314 0.282353 0.223529
0.388235 0.286275 0.227451
0.415686 0.305882 0.250980
0.443137 0.341176 0.282353
0.486275 0.376471 0.321569
0.541176 0.431373 0.380392
0.588235 0.486275 0.431373
0.443137 0.333333 0.278431
0.454902 0.345098 0.290196
0.454902 0.345098 0.290196
0.474510 0.364706 0.309804
0.498039 0.388235 0.333333
0.541176 0.431373 0.380392
0.576471 0.474510 0.419608
0.619608 0.529412 0.470588
0.529412 0.419608 0.368627
0.545098 0.435294 0.384314
0.552941 0.443137 0.392157
0.568627 0.458824 0.407843
0.584314 0.482353 0.427451
0.615686 0.509804 0.466667
0.639216 0.545098 0.498039
0.682353 0.596078 0.552941
0.615686 0.513725 0.458824
0.623529 0.533333 0.474510
0.643137 0.552941 0.494118
0.650980 0.564706 0.521569
0.674510 0.588235 0.537255
0.682353 0.603922 0.560784
0.717647 0.639216 0.596078
0.749020 0.682353 0.643137
0.698039 0.611765 0.568627
0.701961 0.623529 0.580392
0.713725 0.635294 0.592157
0.721569 0.643137 0.600000
0.756863 0.686275 0.647059
0.772549 0.705882 0.674510
0.796078 0.741176 0.705882
0.827451 0.776471 0.745098
0.792157 0.733333 0.705882
0.792157 0.733333 0.705882
0.803922 0.752941 0.721569
0.815686 0.764706 0.733333
0.839216 0.788235 0.756863
0.858824 0.815686 0.792157
0.874510 0.839216 0.819608
0.909804 0.882353 0.858824
0.909804 0.890196 0.874510
0.917647 0.886275 0.874510
0.921569 0.901961 0.886275
0.925490 0.905882 0.890196
0.941176 0.921569 0.909804
0.949020 0.933333 0.921569
0.976471 0.960784 0.949020
0.984314 0.980392 0.972549
0.427451 0.325490 0.266667
0.435294 0.325490 0.270588
0.439216 0.337255 0.278431
0.462745 0.352941 0.298039
0.490196 0.388235 0.329412
0.541176 0.431373 0.376471
0.592157 0.490196 0.435294
0.627451 0.533333 0.486275
0.447059 0.345098 0.286275
0.462745 0.352941 0.298039
0.474510 0.364706 0.309804
0.494118 0.384314 0.329412
0.525490 0.415686 0.360784
0.560784 0.450980 0.400000
0.603922 0.501961 0.447059
0.643137 0.549020 0.501961
0.525490 0.415686 0.360784
0.537255 0.427451 0.376471
0.537255 0.427451 0.376471
0.552941 0.443137 0.392157
0.572549 0.470588 0.415686
0.607843 0.505882 0.450980
0.635294 0.541176 0.494118
0.674510 0.588235 0.537255
0.607843 0.501961 0.458824
0.615686 0.509804 0.466667
0.619608 0.513725 0.470588
0.623529 0.529412 0.482353
0.639216 0.545098 0.498039
0.666667 0.572549 0.525490
0.698039 0.611765 0.568627
0.721569 0.643137 0.607843
0.678431 0.584314 0.537255
0.682353 0.596078 0.552941
0.698039 0.611765 0.568627
0.698039 0.619608 0.576471
0.717647 0.639216 0.596078
0.725490 0.654902 0.607843
0.749020 0.678431 0.639216
0.780392 0.713725 0.682353
0.733333 0.662745 0.623529
0.745098 0.674510 0.635294
0.752941 0.682353 0.643137
0.768627 0.701961 0.662745
0.796078 0.729412 0.698039
0.800000 0.745098 0.709804
0.827451 0.768627 0.741176
0.843137 0.792157 0.760784
0.819608 0.768627 0.737255
0.827451 0.776471 0.745098
0.831373 0.780392 0.749020
0.831373 0.788235 0.764706
0.850980 0.807843 0.784314
0.858824 0.823529 0.803922
0.890196 0.862745 0.839216
0.905882 0.886275 0.870588
0.909804 0.890196 0.874510
0.917647 0.886275 0.874510
0.913725 0.882353 0.870588
0.917647 0.898039 0.882353
0.925490 0.905882 0.894118
0.945098 0.929412 0.917647
0.960784 0.956863 0.949020
1.000000 1.000000 1.000000
