Nostalgia reference/public/luts/sepia3.cube
#Generated with IWLTBAP LUT Generator
#Website: https://luts.iwltbap.com
TITLE "Sepia 3"
LUT_3D_SIZE 8
0.149020 0.105882 0.082353
0.250980 0.200000 0.168627
0.274510 0.219608 0.176471
0.188235 0.137255 0.101961
0.313725 0.247059 0.207843
0.396078 0.317647 0.274510
0.501961 0.415686 0.364706
0.388235 0.301961 0.250980
0.192157 0.141176 0.109804
0.211765 0.160784 0.125490
0.215686 0.160784 0.125490
0.333333 0.262745 0.215686
0.176471 0.105882 0.058824
0.317647 0.243137 0.188235
0.490196 0.403922 0.345098
0.556863 0.462745 0.415686
0.380392 0.325490 0.282353
0.337255 0.274510 0.223529
0.317647 0.243137 0.215686
0.356863 0.278431 0.235294
0.282353 0.207843 0.152941
0.458824 0.368627 0.309804
0.643137 0.549020 0.501961
0.596078 0.509804 0.458824
0.415686 0.329412 0.278431
0.423529 0.337255 0.286275
0.454902 0.368627 0.317647
0.403922 0.317647 0.266667
0.466667 0.380392 0.329412
0.647059 0.560784 0.509804
0.905882 0.819608 0.776471
0.623529 0.537255 0.494118
0.611765 0.517647 0.470588
0.674510 0.580392 0.533333
0.501961 0.407843 0.360784
0.733333 0.639216 0.600000
0.643137 0.556863 0.505882
0.658824 0.580392 0.545098
0.713725 0.643137 0.603922
0.796078 0.725490 0.686275
0.886275 0.800000 0.756863
0.635294 0.549020 0.505882
0.756863 0.662745 0.615686
0.709804 0.623529 0.580392
0.737255 0.658824 0.615686
0.890196 0.819608 0.780392
0.784314 0.713725 0.674510
0.784314 0.709804 0.682353
0.792157 0.725490 0.686275
0.772549 0.698039 0.670588
0.741176 0.674510 0.635294
0.815686 0.745098 0.705882
0.768627 0.701961 0.670588
0.796078 0.729412 0.698039
0.792157 0.733333 0.705882
0.827451 0.776471 0.745098
0.847059 0.796078 0.772549
0.862745 0.803922 0.776471
0.952941 0.894118 0.866667
0.960784 0.909804 0.878431
0.803922 0.752941 0.729412
0.901961 0.858824 0.835294
0.831373 0.788235 0.764706
0.956863 0.921569 0.901961
0.184314 0.145098 0.109804
0.141176 0.090196 0.058824
0.129412 0.078431 0.043137
0.235294 0.180392 0.145098
0.341176 0.274510 0.235294
0.498039 0.411765 0.360784
0.560784 0.474510 0.423529
0.780392 0.694118 0.643137
0.207843 0.156863 0.121569
0.247059 0.192157 0.156863
0.113725 0.058824 0.015686
0.313725 0.247059 0.207843
0.337255 0.250980 0.200000
0.549020 0.458824 0.400000
0.678431 0.592157 0.541176
0.729412 0.643137 0.600000
0.301961 0.231373 0.184314
0.368627 0.294118 0.239216
0.439216 0.368627 0.313725
0.517647 0.443137 0.388235
0.635294 0.545098 0.486275
0.752941 0.658824 0.611765
0.733333 0.654902 0.611765
0.835294 0.756863 0.713725
0.596078 0.490196 0.447059
0.509804 0.423529 0.372549
0.517647 0.431373 0.380392
0.576471 0.482353 0.435294
0.682353 0.596078 0.552941
0.690196 0.600000 0.568627
0.905882 0.835294 0.796078
0.760784 0.701961 0.674510
0.698039 0.619608 0.576471
0.658824 0.580392 0.537255
0.725490 0.639216 0.588235
0.596078 0.509804 0.466667
0.698039 0.627451 0.588235
0.705882 0.631373 0.603922
0.843137 0.788235 0.752941
1.000000 0.968627 0.929412
0.819608 0.752941 0.721569
0.784314 0.713725 0.674510
0.701961 0.631373 0.592157
0.831373 0.760784 0.721569
0.843137 0.776471 0.745098
0.937255 0.886275 0.854902
0.949020 0.890196 0.862745
0.776471 0.725490 0.694118
0.764706 0.713725 0.682353
0.917647 0.866667 0.835294
0.749020 0.698039 0.666667
0.866667 0.815686 0.784314
0.847059 0.788235 0.760784
0.737255 0.686275 0.662745
0.937255 0.894118 0.878431
0.862745 0.827451 0.800000
0.929412 0.894118 0.866667
0.827451 0.784314 0.760784
0.937255 0.894118 0.870588
0.894118 0.850980 0.827451
0.905882 0.862745 0.847059
0.874510 0.839216 0.819608
0.898039 0.866667 0.858824
0.992157 0.988235 0.968627
0.274510 0.223529 0.192157
0.086275 0.050980 0.023529
0.239216 0.184314 0.149020
0.207843 0.141176 0.101961
0.364706 0.290196 0.235294
0.478431 0.392157 0.341176
0.490196 0.403922 0.352941
0.635294 0.549020 0.498039
0.470588 0.392157 0.356863
0.239216 0.184314 0.149020
0.349020 0.286275 0.235294
0.474510 0.400000 0.345098
0.427451 0.337255 0.278431
0.717647 0.623529 0.576471
0.803922 0.725490 0.682353
0.772549 0.701961 0.654902
0.490196 0.403922 0.352941
0.388235 0.309804 0.266667
0.513725 0.423529 0.364706
0.627451 0.533333 0.486275
0.537255 0.443137 0.396078
0.674510 0.588235 0.545098
0.788235 0.717647 0.678431
0.862745 0.792157 0.745098
0.611765 0.525490 0.474510
0.639216 0.545098 0.498039
0.498039 0.403922 0.356863
0.639216 0.545098 0.498039
0.866667 0.780392 0.737255
0.713725 0.647059 0.615686
0.831373 0.764706 0.733333
0.941176 0.886275 0.850980
0.619608 0.549020 0.501961
0.556863 0.478431 0.435294
0.627451 0.549020 0.505882
0.890196 0.819608 0.780392
0.658824 0.584314 0.556863
0.796078 0.721569 0.694118
0.745098 0.694118 0.662745
0.811765 0.745098 0.717647
0.815686 0.749020 0.717647
0.803922 0.749020 0.713725
0.937255 0.870588 0.831373
0.839216 0.772549 0.741176
0.831373 0.776471 0.741176
0.796078 0.745098 0.713725
0.917647 0.882353 0.854902
0.925490 0.890196 0.862745
0.913725 0.870588 0.847059
1.000000 0.968627 0.941176
0.901961 0.862745 0.823529
0.725490 0.666667 0.654902
0.776471 0.741176 0.713725
0.776471 0.733333 0.717647
0.976471 0.945098 0.933333
0.992157 0.972549 0.956863
0.898039 0.866667 0.854902
0.894118 0.858824 0.839216
0.917647 0.874510 0.858824
0.858824 0.823529 0.803922
0.890196 0.862745 0.839216
0.984314 0.941176 0.925490
0.917647 0.898039 0.882353
1.000000 1.000000 0.984314
0.286275 0.235294 0.200000
0.254902 0.200000 0.164706
0.227451 0.172549 0.137255
0.200000 0.129412 0.082353
0.341176 0.254902 0.203922
0.686275 0.600000 0.549020
0.760784 0.674510 0.631373
0.733333 0.647059 0.603922
0.352941 0.282353 0.235294
0.450980 0.380392 0.333333
0.298039 0.227451 0.180392
0.470588 0.396078 0.341176
0.592157 0.498039 0.450980
0.580392 0.494118 0.443137
0.635294 0.556863 0.513725
0.882353 0.803922 0.760784
0.513725 0.419608 0.372549
0.466667 0.380392 0.329412
0.396078 0.301961 0.254902
0.529412 0.435294 0.388235
0.596078 0.501961 0.454902
0.854902 0.768627 0.725490
0.925490 0.858824 0.819608
0.807843 0.737255 0.698039
0.654902 0.568627 0.517647
0.541176 0.447059 0.407843
0.580392 0.494118 0.443137
0.745098 0.650980 0.603922
0.635294 0.556863 0.513725
0.760784 0.682353 0.647059
0.749020 0.678431 0.639216
0.823529 0.756863 0.725490
0.733333 0.662745 0.623529
0.717647 0.631373 0.588235
0.729412 0.658824 0.611765
0.737255 0.658824 0.623529
0.976471 0.905882 0.866667
0.858824 0.792157 0.760784
0.713725 0.662745 0.631373
0.886275 0.835294 0.811765
0.894118 0.839216 0.803922
0.929412 0.862745 0.835294
0.839216 0.772549 0.741176
0.866667 0.800000 0.768627
0.803922 0.745098 0.717647
1.000000 0.976471 0.937255
0.913725 0.870588 0.854902
0.909804 0.866667 0.850980
0.870588 0.835294 0.815686
0.862745 0.819608 0.796078
0.819608 0.776471 0.752941
0.878431 0.843137 0.823529
0.870588 0.831373 0.796078
0.937255 0.901961 0.882353
1.000000 0.964706 0.956863
1.000000 0.996078 0.976471
0.949020 0.929412 0.917647
1.000000 1.000000 0.992157
0.788235 0.756863 0.745098
0.945098 0.913725 0.901961
0.917647 0.886275 0.874510
0.933333 0.901961 0.890196
0.901961 0.886275 0.874510
1.000000 1.000000 0.992157
0.254902 0.200000 0.164706
0.250980 0.184314 0.145098
0.313725 0.250980 0.200000
0.309804 0.239216 0.192157
0.458824 0.372549 0.321569
0.537255 0.443137 0.396078
0.701961 0.615686 0.572549
0.784314 0.698039 0.654902
0.207843 0.133333 0.078431
0.450980 0.376471 0.321569
0.454902 0.368627 0.317647
0.545098 0.458824 0.407843
0.556863 0.466667 0.407843
0.654902 0.568627 0.525490
0.831373 0.760784 0.721569
0.662745 0.584314 0.549020
0.486275 0.392157 0.345098
0.541176 0.450980 0.392157
0.654902 0.564706 0.505882
0.752941 0.658824 0.611765
0.619608 0.533333 0.482353
0.698039 0.611765 0.568627
0.772549 0.701961 0.662745
0.815686 0.745098 0.705882
0.737255 0.643137 0.596078
0.580392 0.494118 0.443137
0.737255 0.650980 0.600000
0.631373 0.545098 0.501961
0.705882 0.627451 0.584314
0.772549 0.701961 0.662745
0.811765 0.745098 0.717647
0.909804 0.858824 0.823529
0.854902 0.784314 0.745098
0.733333 0.654902 0.611765
0.792157 0.721569 0.674510
0.866667 0.788235 0.752941
0.831373 0.756863 0.729412
1.000000 0.984314 0.945098
0.882353 0.827451 0.792157
0.996078 0.945098 0.921569
0.847059 0.780392 0.752941
0.725490 0.674510 0.643137
0.780392 0.725490 0.690196
0.760784 0.701961 0.674510
0.811765 0.760784 0.737255
0.960784 0.929412 0.890196
0.960784 0.917647 0.901961
0.803922 0.772549 0.760784
0.960784 0.917647 0.901961
0.933333 0.905882 0.882353
0.996078 0.952941 0.937255
0.976471 0.933333 0.917647
0.843137 0.807843 0.788235
0.968627 0.925490 0.909804
0.894118 0.862745 0.854902
0.976471 0.945098 0.933333
0.976471 0.956863 0.945098
0.933333 0.913725 0.898039
0.933333 0.913725 0.898039
0.929412 0.909804 0.898039
1.000000 0.992157 0.980392
0.874510 0.843137 0.831373
1.000000 1.000000 0.984314
0.870588 0.823529 0.823529
0.321569 0.254902 0.215686
0.239216 0.172549 0.133333
0.254902 0.184314 0.137255
0.419608 0.345098 0.290196
0.435294 0.349020 0.298039
0.643137 0.552941 0.494118
0.792157 0.705882 0.654902
0.674510 0.596078 0.552941
0.356863 0.270588 0.219608
0.427451 0.341176 0.290196
0.415686 0.329412 0.278431
0.658824 0.552941 0.509804
0.592157 0.486275 0.443137
0.635294 0.549020 0.498039
0.658824 0.588235 0.541176
0.694118 0.615686 0.580392
0.658824 0.564706 0.517647
0.615686 0.521569 0.474510
0.721569 0.635294 0.584314
0.623529 0.529412 0.482353
0.674510 0.588235 0.537255
0.768627 0.678431 0.647059
0.749020 0.678431 0.639216
0.682353 0.607843 0.580392
0.686275 0.600000 0.556863
0.686275 0.600000 0.549020
0.737255 0.650980 0.607843
0.596078 0.517647 0.474510
0.807843 0.729412 0.694118
0.776471 0.698039 0.662745
0.658824 0.600000 0.572549
0.917647 0.866667 0.835294
0.690196 0.619608 0.580392
0.827451 0.749020 0.713725
0.611765 0.541176 0.501961
0.847059 0.776471 0.737255
0.788235 0.721569 0.690196
0.866667 0.811765 0.776471
0.862745 0.819608 0.796078
0.917647 0.858824 0.847059
0.976471 0.917647 0.890196
0.815686 0.749020 0.717647
0.933333 0.874510 0.847059
0.921569 0.866667 0.831373
0.764706 0.721569 0.698039
1.000000 0.945098 0.925490
1.000000 1.000000 0.980392
0.866667 0.823529 0.815686
0.996078 0.960784 0.941176
0.913725 0.870588 0.854902
0.870588 0.819608 0.796078
0.878431 0.835294 0.819608
0.988235 0.968627 0.945098
0.972549 0.941176 0.929412
0.847059 0.827451 0.811765
0.878431 0.839216 0.831373
0.901961 0.870588 0.858824
0.996078 0.976471 0.960784
0.823529 0.803922 0.788235
1.000000 0.996078 0.980392
1.000000 0.996078 0.980392
0.976471 0.945098 0.937255
0.945098 0.925490 0.913725
1.000000 1.000000 0.992157
0.274510 0.203922 0.156863
0.254902 0.184314 0.137255
0.396078 0.317647 0.274510
0.576471 0.501961 0.447059
0.309804 0.223529 0.172549
0.600000 0.509804 0.450980
0.541176 0.454902 0.403922
0.690196 0.603922 0.560784
0.352941 0.266667 0.215686
0.423529 0.337255 0.286275
0.517647 0.431373 0.372549
0.400000 0.309804 0.250980
0.556863 0.466667 0.407843
0.662745 0.576471 0.525490
0.698039 0.619608 0.576471
0.784314 0.705882 0.670588
0.694118 0.600000 0.552941
0.533333 0.447059 0.396078
0.627451 0.533333 0.486275
0.698039 0.611765 0.560784
0.576471 0.490196 0.447059
0.815686 0.745098 0.698039
0.698039 0.627451 0.588235
0.745098 0.674510 0.635294
0.843137 0.756863 0.713725
0.870588 0.792157 0.749020
0.815686 0.737255 0.694118
0.733333 0.654902 0.619608
0.733333 0.654902 0.619608
0.972549 0.898039 0.870588
0.850980 0.784314 0.756863
0.874510 0.819608 0.784314
0.713725 0.639216 0.611765
0.670588 0.603922 0.564706
0.850980 0.784314 0.745098
0.749020 0.674510 0.647059
0.854902 0.800000 0.764706
0.831373 0.780392 0.745098
0.690196 0.639216 0.607843
0.890196 0.839216 0.807843
0.854902 0.796078 0.768627
0.898039 0.831373 0.800000
0.890196 0.835294 0.800000
0.847059 0.780392 0.749020
0.800000 0.741176 0.713725
0.796078 0.745098 0.713725
0.894118 0.854902 0.819608
0.850980 0.807843 0.784314
0.823529 0.780392 0.756863
0.721569 0.670588 0.647059
0.847059 0.788235 0.768627
0.796078 0.745098 0.721569
0.874510 0.831373 0.807843
0.823529 0.796078 0.772549
0.854902 0.819608 0.800000
1.000000 0.996078 0.976471
0.788235 0.752941 0.733333
0.882353 0.850980 0.839216
0.850980 0.807843 0.792157
0.968627 0.933333 0.913725
0.921569 0.886275 0.866667
1.000000 0.992157 0.980392
0.968627 0.949020 0.937255
1.000000 1.000000 0.992157
0.294118 0.207843 0.156863
0.423529 0.349020 0.294118
0.345098 0.258824 0.207843
0.478431 0.392157 0.333333
0.549020 0.458824 0.400000
0.650980 0.556863 0.509804
0.576471 0.490196 0.447059
0.709804 0.623529 0.580392
0.533333 0.443137 0.384314
0.450980 0.360784 0.301961
0.568627 0.478431 0.419608
0.549020 0.454902 0.407843
0.674510 0.580392 0.533333
0.647059 0.560784 0.517647
0.764706 0.678431 0.635294
0.705882 0.627451 0.592157
0.701961 0.615686 0.564706
0.635294 0.541176 0.494118
0.701961 0.615686 0.564706
0.647059 0.560784 0.517647
0.729412 0.650980 0.607843
0.654902 0.584314 0.545098
0.843137 0.772549 0.733333
0.984314 0.909804 0.882353
0.588235 0.517647 0.478431
0.584314 0.505882 0.470588
0.662745 0.592157 0.552941
0.792157 0.721569 0.682353
0.745098 0.678431 0.650980
0.831373 0.756863 0.729412
0.890196 0.831373 0.803922
0.862745 0.807843 0.772549
0.760784 0.694118 0.666667
0.901961 0.827451 0.800000
0.937255 0.870588 0.839216
0.858824 0.792157 0.760784
0.729412 0.674510 0.639216
0.937255 0.886275 0.854902
0.807843 0.756863 0.733333
1.000000 0.956863 0.933333
0.756863 0.698039 0.670588
0.866667 0.807843 0.780392
0.874510 0.800000 0.772549
0.752941 0.713725 0.678431
0.866667 0.815686 0.784314
1.000000 0.949020 0.925490
1.000000 0.949020 0.925490
0.996078 0.960784 0.933333
0.913725 0.878431 0.850980
0.847059 0.803922 0.780392
0.901961 0.858824 0.835294
0.819608 0.776471 0.752941
0.894118 0.843137 0.819608
0.898039 0.862745 0.843137
0.827451 0.796078 0.784314
0.964706 0.929412 0.909804
0.866667 0.839216 0.815686
0.843137 0.807843 0.788235
1.000000 0.996078 0.984314
1.000000 1.000000 0.984314
0.925490 0.886275 0.878431
0.968627 0.937255 0.925490
1.000000 1.000000 0.984314
0.956863 0.925490 0.913725
