Nostalgia reference/public/luts/sepia3.cube
#Generated with IWLTBAP LUT Generator
#Website: https://luts.iwltbap.com
TITLE "Sepia 3"
LUT_3D_SIZE 64
0.149020 0.105882 0.082353
0.129412 0.086275 0.062745
0.098039 0.054902 0.031373
0.215686 0.172549 0.149020
0.058824 0.015686 0.000000
0.160784 0.121569 0.086275
0.137255 0.098039 0.062745
0.098039 0.058824 0.023529
0.215686 0.176471 0.141176
0.250980 0.200000 0.168627
0.384314 0.333333 0.298039
0.188235 0.137255 0.113725
0.172549 0.121569 0.086275
0.176471 0.125490 0.094118
0.188235 0.137255 0.101961
0.149020 0.098039 0.062745
0.011765 0.000000 0.000000
0.215686 0.176471 0.141176
0.274510 0.219608 0.176471
0.105882 0.054902 0.023529
0.090196 0.039216 0.007843
0.301961 0.247059 0.211765
0.243137 0.188235 0.152941
0.141176 0.098039 0.074510
0.231373 0.180392 0.145098
0.168627 0.117647 0.082353
0.184314 0.133333 0.098039
0.188235 0.137255 0.101961
0.078431 0.023529 0.000000
0.282353 0.227451 0.192157
0.407843 0.352941 0.317647
0.141176 0.086275 0.050980
0.172549 0.117647 0.074510
0.270588 0.203922 0.164706
0.380392 0.313725 0.274510
0.231373 0.164706 0.125490
0.313725 0.247059 0.207843
0.196078 0.129412 0.090196
0.341176 0.274510 0.235294
0.364706 0.298039 0.258824
0.270588 0.200000 0.152941
0.172549 0.101961 0.054902
0.368627 0.298039 0.250980
0.345098 0.274510 0.227451
0.384314 0.313725 0.266667
0.396078 0.317647 0.274510
0.415686 0.337255 0.294118
0.372549 0.294118 0.250980
0.298039 0.223529 0.168627
0.431373 0.356863 0.301961
0.407843 0.333333 0.278431
0.439216 0.364706 0.309804
0.380392 0.305882 0.250980
0.501961 0.415686 0.364706
0.501961 0.415686 0.364706
0.466667 0.380392 0.329412
0.592157 0.505882 0.454902
0.525490 0.439216 0.388235
0.658824 0.572549 0.521569
0.450980 0.364706 0.313725
0.513725 0.427451 0.376471
0.486275 0.400000 0.349020
0.427451 0.341176 0.290196
0.388235 0.301961 0.250980
0.113725 0.070588 0.047059
0.227451 0.184314 0.160784
0.043137 0.000000 0.000000
0.184314 0.141176 0.117647
0.227451 0.176471 0.152941
0.117647 0.066667 0.035294
0.203922 0.152941 0.121569
0.141176 0.090196 0.058824
0.101961 0.058824 0.035294
0.200000 0.156863 0.133333
0.050980 0.011765 0.000000
0.113725 0.074510 0.039216
0.113725 0.062745 0.031373
0.121569 0.070588 0.039216
0.152941 0.101961 0.066667
0.196078 0.145098 0.109804
0.137255 0.086275 0.054902
0.203922 0.152941 0.121569
0.223529 0.172549 0.141176
0.247059 0.196078 0.164706
0.188235 0.137255 0.101961
0.133333 0.082353 0.047059
0.227451 0.176471 0.141176
0.188235 0.133333 0.098039
0.015686 0.000000 0.000000
0.337255 0.286275 0.254902
0.117647 0.078431 0.043137
0.309804 0.247059 0.196078
0.152941 0.113725 0.078431
0.125490 0.078431 0.031373
0.250980 0.184314 0.145098
0.188235 0.133333 0.090196
0.278431 0.211765 0.172549
0.231373 0.164706 0.125490
0.282353 0.215686 0.176471
0.160784 0.094118 0.054902
0.321569 0.254902 0.215686
0.329412 0.258824 0.219608
0.376471 0.305882 0.266667
0.333333 0.262745 0.215686
0.364706 0.294118 0.247059
0.258824 0.188235 0.141176
0.278431 0.207843 0.160784
0.274510 0.203922 0.149020
0.278431 0.203922 0.149020
0.384314 0.309804 0.254902
0.345098 0.270588 0.215686
0.321569 0.247059 0.192157
0.478431 0.403922 0.349020
0.360784 0.274510 0.223529
0.298039 0.211765 0.160784
0.494118 0.407843 0.356863
0.525490 0.439216 0.388235
0.474510 0.388235 0.337255
0.498039 0.411765 0.360784
0.447059 0.360784 0.309804
0.513725 0.427451 0.376471
0.368627 0.282353 0.231373
0.454902 0.368627 0.317647
0.392157 0.305882 0.254902
0.529412 0.443137 0.392157
0.427451 0.341176 0.290196
0.415686 0.329412 0.278431
0.478431 0.392157 0.341176
0.227451 0.176471 0.141176
0.156863 0.117647 0.082353
0.058824 0.015686 0.000000
0.286275 0.235294 0.211765
0.082353 0.031373 0.000000
0.074510 0.035294 0.000000
0.309804 0.270588 0.235294
0.192157 0.152941 0.117647
0.349020 0.305882 0.282353
0.043137 0.003922 0.000000
0.211765 0.172549 0.137255
0.164706 0.109804 0.074510
0.294118 0.239216 0.203922
0.121569 0.070588 0.039216
0.274510 0.243137 0.200000
0.011765 0.000000 0.000000
0.274510 0.223529 0.188235
0.215686 0.160784 0.125490
0.180392 0.129412 0.094118
0.250980 0.200000 0.164706
0.239216 0.184314 0.149020
0.172549 0.121569 0.086275
0.200000 0.149020 0.113725
0.184314 0.133333 0.101961
0.149020 0.094118 0.058824
0.227451 0.172549 0.137255
0.109804 0.054902 0.011765
0.262745 0.207843 0.164706
0.215686 0.160784 0.117647
0.156863 0.101961 0.058824
0.231373 0.164706 0.125490
0.309804 0.243137 0.203922
0.325490 0.258824 0.219608
0.137255 0.070588 0.031373
0.415686 0.349020 0.309804
0.164706 0.098039 0.058824
0.411765 0.349020 0.298039
0.407843 0.337255 0.290196
0.266667 0.196078 0.149020
0.478431 0.407843 0.360784
0.207843 0.137255 0.082353
0.349020 0.278431 0.231373
0.137255 0.058824 0.015686
0.403922 0.325490 0.282353
0.427451 0.352941 0.298039
0.407843 0.333333 0.278431
0.482353 0.407843 0.352941
0.400000 0.313725 0.262745
0.407843 0.321569 0.270588
0.356863 0.270588 0.219608
0.529412 0.443137 0.392157
0.552941 0.466667 0.415686
0.486275 0.400000 0.349020
0.431373 0.345098 0.294118
0.635294 0.549020 0.498039
0.396078 0.301961 0.254902
0.533333 0.439216 0.392157
0.403922 0.309804 0.262745
0.615686 0.521569 0.474510
0.486275 0.392157 0.345098
0.600000 0.505882 0.458824
0.474510 0.380392 0.333333
0.588235 0.494118 0.447059
0.592157 0.498039 0.450980
0.098039 0.047059 0.015686
0.113725 0.062745 0.031373
0.286275 0.235294 0.203922
0.164706 0.113725 0.082353
0.227451 0.176471 0.145098
0.219608 0.168627 0.137255
0.149020 0.098039 0.062745
0.192157 0.141176 0.105882
0.290196 0.247059 0.223529
0.039216 0.000000 0.000000
0.282353 0.231373 0.200000
0.337255 0.286275 0.254902
0.133333 0.082353 0.050980
0.243137 0.192157 0.160784
0.301961 0.250980 0.219608
0.149020 0.098039 0.066667
0.129412 0.078431 0.043137
0.329412 0.278431 0.243137
0.250980 0.196078 0.160784
0.137255 0.082353 0.047059
0.309804 0.254902 0.219608
0.172549 0.117647 0.082353
0.164706 0.109804 0.074510
0.337255 0.282353 0.247059
0.152941 0.098039 0.054902
0.321569 0.266667 0.223529
0.235294 0.180392 0.137255
0.141176 0.086275 0.043137
0.352941 0.298039 0.254902
0.247059 0.180392 0.141176
0.423529 0.356863 0.317647
0.270588 0.203922 0.164706
0.388235 0.325490 0.274510
0.137255 0.074510 0.023529
0.301961 0.239216 0.188235
0.247059 0.176471 0.129412
0.529412 0.458824 0.411765
0.360784 0.290196 0.243137
0.168627 0.098039 0.050980
0.258824 0.188235 0.141176
0.533333 0.458824 0.403922
0.262745 0.200000 0.141176
0.345098 0.258824 0.207843
0.207843 0.133333 0.078431
0.321569 0.247059 0.192157
0.603922 0.509804 0.462745
0.419608 0.345098 0.290196
0.466667 0.380392 0.329412
0.498039 0.411765 0.352941
0.494118 0.407843 0.356863
0.572549 0.486275 0.435294
0.505882 0.419608 0.368627
0.450980 0.364706 0.313725
0.403922 0.317647 0.266667
0.600000 0.513725 0.462745
0.529412 0.443137 0.392157
0.760784 0.674510 0.615686
0.556863 0.462745 0.415686
0.529412 0.435294 0.388235
0.541176 0.447059 0.400000
0.568627 0.474510 0.427451
0.513725 0.419608 0.372549
0.631373 0.537255 0.490196
0.631373 0.545098 0.486275
0.050980 0.015686 0.000000
0.325490 0.270588 0.235294
0.298039 0.247059 0.215686
0.035294 0.003922 0.003922
0.156863 0.101961 0.066667
0.317647 0.266667 0.231373
0.015686 0.000000 0.007843
0.231373 0.180392 0.145098
0.117647 0.066667 0.035294
0.113725 0.062745 0.031373
0.090196 0.039216 0.003922
0.286275 0.235294 0.203922
0.258824 0.207843 0.172549
0.105882 0.047059 0.019608
0.219608 0.164706 0.129412
0.164706 0.109804 0.074510
0.113725 0.062745 0.027451
0.105882 0.054902 0.019608
0.200000 0.149020 0.113725
0.329412 0.278431 0.243137
0.215686 0.160784 0.125490
0.294118 0.239216 0.203922
0.164706 0.109804 0.074510
0.325490 0.270588 0.227451
0.125490 0.070588 0.035294
0.019608 0.000000 0.000000
0.231373 0.176471 0.133333
0.376471 0.301961 0.274510
0.356863 0.305882 0.274510
0.239216 0.168627 0.113725
0.356863 0.290196 0.250980
0.200000 0.133333 0.094118
0.250980 0.184314 0.145098
0.203922 0.137255 0.098039
0.262745 0.192157 0.145098
0.262745 0.192157 0.145098
0.380392 0.309804 0.262745
0.337255 0.266667 0.219608
0.423529 0.352941 0.305882
0.325490 0.247059 0.203922
0.345098 0.270588 0.215686
0.352941 0.266667 0.215686
0.321569 0.247059 0.192157
0.490196 0.403922 0.352941
0.376471 0.301961 0.247059
0.458824 0.372549 0.313725
0.447059 0.360784 0.301961
0.325490 0.231373 0.184314
0.603922 0.509804 0.462745
0.407843 0.313725 0.266667
0.454902 0.360784 0.313725
0.439216 0.345098 0.298039
0.447059 0.352941 0.305882
0.600000 0.505882 0.458824
0.513725 0.419608 0.372549
0.545098 0.450980 0.403922
0.698039 0.607843 0.549020
0.580392 0.494118 0.435294
0.419608 0.329412 0.270588
0.517647 0.427451 0.368627
0.631373 0.545098 0.494118
0.650980 0.564706 0.513725
0.556863 0.462745 0.415686
0.513725 0.419608 0.372549
0.262745 0.223529 0.188235
0.141176 0.082353 0.054902
0.156863 0.117647 0.082353
0.211765 0.160784 0.129412
0.380392 0.329412 0.298039
0.094118 0.054902 0.019608
0.156863 0.105882 0.074510
0.117647 0.066667 0.035294
0.156863 0.105882 0.070588
0.168627 0.117647 0.082353
0.317647 0.266667 0.235294
0.215686 0.164706 0.133333
0.074510 0.023529 0.000000
0.074510 0.023529 0.000000
0.168627 0.117647 0.086275
0.121569 0.070588 0.035294
0.207843 0.156863 0.121569
0.329412 0.274510 0.239216
0.101961 0.047059 0.011765
0.247059 0.192157 0.156863
0.243137 0.188235 0.152941
0.235294 0.180392 0.145098
0.243137 0.188235 0.152941
0.231373 0.176471 0.141176
0.250980 0.196078 0.160784
0.266667 0.211765 0.176471
0.117647 0.050980 0.019608
0.282353 0.215686 0.184314
0.149020 0.082353 0.050980
0.278431 0.211765 0.172549
0.247059 0.180392 0.141176
0.219608 0.152941 0.113725
0.349020 0.282353 0.243137
0.294118 0.227451 0.188235
0.305882 0.239216 0.200000
0.203922 0.133333 0.094118
0.321569 0.250980 0.203922
0.196078 0.125490 0.078431
0.121569 0.050980 0.003922
0.443137 0.372549 0.325490
0.392157 0.321569 0.274510
0.203922 0.133333 0.086275
0.325490 0.247059 0.203922
0.384314 0.305882 0.262745
0.458824 0.384314 0.329412
0.294118 0.219608 0.164706
0.380392 0.305882 0.250980
0.470588 0.384314 0.333333
0.466667 0.380392 0.329412
0.533333 0.447059 0.396078
0.450980 0.364706 0.313725
0.454902 0.360784 0.313725
0.376471 0.286275 0.227451
0.529412 0.439216 0.380392
0.513725 0.423529 0.364706
0.584314 0.498039 0.439216
0.509804 0.415686 0.368627
0.552941 0.458824 0.411765
0.541176 0.447059 0.400000
0.603922 0.509804 0.462745
0.525490 0.431373 0.384314
0.462745 0.368627 0.321569
0.603922 0.509804 0.462745
0.533333 0.439216 0.392157
0.027451 0.003922 0.003922
0.172549 0.133333 0.094118
0.109804 0.070588 0.035294
0.035294 0.003922 0.000000
0.117647 0.074510 0.050980
0.313725 0.254902 0.227451
0.286275 0.235294 0.203922
0.317647 0.278431 0.239216
0.125490 0.074510 0.039216
0.168627 0.117647 0.082353
0.145098 0.094118 0.058824
0.243137 0.192157 0.160784
0.321569 0.270588 0.239216
0.254902 0.203922 0.168627
0.168627 0.117647 0.082353
0.196078 0.145098 0.109804
0.117647 0.066667 0.031373
0.290196 0.235294 0.200000
0.239216 0.184314 0.149020
0.243137 0.188235 0.152941
0.203922 0.152941 0.117647
0.149020 0.109804 0.070588
0.168627 0.113725 0.078431
0.262745 0.207843 0.172549
0.247059 0.192157 0.156863
0.094118 0.039216 0.003922
0.313725 0.258824 0.223529
0.309804 0.254902 0.219608
0.270588 0.215686 0.180392
0.223529 0.156863 0.117647
0.254902 0.188235 0.149020
0.274510 0.207843 0.168627
0.239216 0.172549 0.133333
0.239216 0.172549 0.133333
0.184314 0.117647 0.078431
0.278431 0.211765 0.172549
0.349020 0.282353 0.243137
0.341176 0.270588 0.231373
0.227451 0.156863 0.117647
0.309804 0.239216 0.192157
0.290196 0.219608 0.180392
0.364706 0.294118 0.247059
0.294118 0.223529 0.176471
0.270588 0.200000 0.152941
0.396078 0.317647 0.274510
0.392157 0.313725 0.270588
0.360784 0.274510 0.223529
0.419608 0.333333 0.282353
0.372549 0.298039 0.243137
0.541176 0.466667 0.411765
0.380392 0.294118 0.243137
0.470588 0.384314 0.333333
0.376471 0.290196 0.239216
0.556863 0.470588 0.419608
0.407843 0.321569 0.270588
0.411765 0.325490 0.274510
0.447059 0.352941 0.305882
0.372549 0.278431 0.231373
0.533333 0.447059 0.396078
0.447059 0.360784 0.309804
0.533333 0.447059 0.396078
0.576471 0.490196 0.439216
0.435294 0.341176 0.294118
0.458824 0.364706 0.317647
0.235294 0.184314 0.160784
0.113725 0.062745 0.031373
0.164706 0.121569 0.098039
0.192157 0.133333 0.105882
0.172549 0.121569 0.090196
0.058824 0.015686 0.000000
0.188235 0.133333 0.098039
0.207843 0.156863 0.125490
0.235294 0.184314 0.160784
0.152941 0.105882 0.058824
0.239216 0.188235 0.152941
0.098039 0.047059 0.023529
0.054902 0.000000 0.000000
0.286275 0.235294 0.203922
0.188235 0.137255 0.105882
0.058824 0.003922 0.000000
0.266667 0.200000 0.168627
0.164706 0.113725 0.078431
0.125490 0.090196 0.062745
0.490196 0.415686 0.388235
0.003922 0.000000 0.000000
0.321569 0.266667 0.231373
0.180392 0.125490 0.090196
0.239216 0.184314 0.149020
0.215686 0.160784 0.125490
0.333333 0.278431 0.243137
0.192157 0.137255 0.101961
0.227451 0.172549 0.137255
0.184314 0.129412 0.094118
0.207843 0.141176 0.109804
0.133333 0.066667 0.027451
0.337255 0.270588 0.231373
0.121569 0.054902 0.015686
0.152941 0.086275 0.047059
0.200000 0.133333 0.094118
0.392157 0.325490 0.286275
0.239216 0.172549 0.133333
0.392157 0.329412 0.278431
0.262745 0.200000 0.149020
0.258824 0.196078 0.145098
0.274510 0.203922 0.156863
0.356863 0.286275 0.239216
0.250980 0.180392 0.133333
0.419608 0.349020 0.301961
0.258824 0.180392 0.137255
0.537255 0.458824 0.415686
0.247059 0.168627 0.125490
0.427451 0.349020 0.305882
0.388235 0.313725 0.258824
0.364706 0.290196 0.235294
0.360784 0.286275 0.231373
0.600000 0.513725 0.462745
0.352941 0.266667 0.215686
0.462745 0.376471 0.325490
0.400000 0.313725 0.262745
0.490196 0.403922 0.352941
0.568627 0.474510 0.427451
0.529412 0.435294 0.388235
0.666667 0.580392 0.529412
0.454902 0.368627 0.317647
0.423529 0.337255 0.286275
0.439216 0.352941 0.301961
0.721569 0.635294 0.584314
0.305882 0.219608 0.168627
0.090196 0.039216 0.007843
0.109804 0.058824 0.027451
0.364706 0.313725 0.282353
0.145098 0.094118 0.062745
0.278431 0.227451 0.196078
0.137255 0.086275 0.054902
0.176471 0.125490 0.094118
0.168627 0.117647 0.086275
0.223529 0.184314 0.149020
0.035294 0.000000 0.000000
0.145098 0.105882 0.058824
0.039216 0.000000 0.000000
0.215686 0.172549 0.156863
0.235294 0.196078 0.156863
0.066667 0.011765 0.011765
0.298039 0.247059 0.215686
0.294118 0.243137 0.211765
0.149020 0.090196 0.062745
0.133333 0.078431 0.043137
0.333333 0.278431 0.243137
0.180392 0.129412 0.094118
0.113725 0.062745 0.027451
0.196078 0.141176 0.098039
0.298039 0.231373 0.192157
0.239216 0.184314 0.141176
0.164706 0.109804 0.066667
0.117647 0.062745 0.019608
0.396078 0.341176 0.298039
0.180392 0.125490 0.082353
0.278431 0.211765 0.172549
0.105882 0.039216 0.000000
0.286275 0.219608 0.180392
0.309804 0.243137 0.203922
0.243137 0.176471 0.137255
0.247059 0.180392 0.141176
0.149020 0.082353 0.043137
0.396078 0.329412 0.290196
0.133333 0.066667 0.027451
0.180392 0.113725 0.074510
0.184314 0.117647 0.078431
0.541176 0.470588 0.423529
0.337255 0.266667 0.219608
0.388235 0.317647 0.270588
0.250980 0.180392 0.133333
0.427451 0.349020 0.305882
0.337255 0.258824 0.215686
0.329412 0.250980 0.207843
0.419608 0.341176 0.298039
0.458824 0.372549 0.321569
0.388235 0.301961 0.250980
0.458824 0.372549 0.321569
0.431373 0.345098 0.294118
0.384314 0.298039 0.247059
0.380392 0.294118 0.243137
0.388235 0.301961 0.250980
0.580392 0.486275 0.439216
0.462745 0.368627 0.321569
0.349020 0.254902 0.207843
0.545098 0.458824 0.407843
0.635294 0.549020 0.498039
0.368627 0.282353 0.231373
0.482353 0.396078 0.345098
0.490196 0.396078 0.349020
0.552941 0.458824 0.411765
0.192157 0.141176 0.109804
0.164706 0.113725 0.082353
0.160784 0.109804 0.078431
0.250980 0.200000 0.168627
0.172549 0.121569 0.090196
0.074510 0.023529 0.000000
0.258824 0.207843 0.172549
0.192157 0.141176 0.105882
0.164706 0.113725 0.078431
0.211765 0.160784 0.125490
0.266667 0.215686 0.180392
0.313725 0.262745 0.227451
0.133333 0.082353 0.047059
0.231373 0.176471 0.141176
0.145098 0.090196 0.054902
0.333333 0.278431 0.243137
0.168627 0.113725 0.078431
0.258824 0.203922 0.168627
0.215686 0.160784 0.125490
0.180392 0.125490 0.082353
0.286275 0.231373 0.196078
0.141176 0.086275 0.043137
0.105882 0.050980 0.015686
0.286275 0.231373 0.188235
0.239216 0.172549 0.133333
0.360784 0.305882 0.262745
0.011765 0.000000 0.000000
0.333333 0.262745 0.215686
0.305882 0.239216 0.200000
0.309804 0.239216 0.200000
0.184314 0.121569 0.070588
0.200000 0.133333 0.094118
0.309804 0.243137 0.203922
0.317647 0.254902 0.203922
0.215686 0.152941 0.101961
0.227451 0.156863 0.109804
0.176471 0.105882 0.058824
0.254902 0.184314 0.137255
0.282353 0.211765 0.164706
0.470588 0.400000 0.352941
0.325490 0.254902 0.207843
0.325490 0.254902 0.207843
0.356863 0.278431 0.235294
0.411765 0.337255 0.282353
0.423529 0.349020 0.294118
0.317647 0.243137 0.188235
0.435294 0.349020 0.298039
0.427451 0.341176 0.290196
0.243137 0.156863 0.098039
0.407843 0.321569 0.262745
0.498039 0.411765 0.352941
0.352941 0.262745 0.203922
0.470588 0.380392 0.321569
0.505882 0.419608 0.360784
0.490196 0.403922 0.345098
0.682353 0.592157 0.533333
0.356863 0.262745 0.215686
0.666667 0.572549 0.525490
0.556863 0.462745 0.415686
0.423529 0.329412 0.282353
0.462745 0.368627 0.321569
0.635294 0.541176 0.494118
0.576471 0.482353 0.435294
0.556863 0.462745 0.415686
0.101961 0.047059 0.011765
0.337255 0.278431 0.250980
0.180392 0.129412 0.094118
0.160784 0.121569 0.082353
0.219608 0.164706 0.129412
0.188235 0.129412 0.101961
0.243137 0.207843 0.188235
0.011765 0.000000 0.000000
0.145098 0.090196 0.047059
0.278431 0.223529 0.188235
0.043137 0.000000 0.000000
0.239216 0.188235 0.152941
0.117647 0.058824 0.039216
0.250980 0.196078 0.152941
0.219608 0.168627 0.145098
0.368627 0.317647 0.282353
0.207843 0.152941 0.117647
0.266667 0.211765 0.168627
0.250980 0.184314 0.152941
0.101961 0.047059 0.003922
0.192157 0.137255 0.094118
0.231373 0.164706 0.125490
0.384314 0.317647 0.278431
0.168627 0.101961 0.062745
0.384314 0.317647 0.278431
0.333333 0.266667 0.227451
0.247059 0.180392 0.141176
0.349020 0.282353 0.243137
0.231373 0.164706 0.125490
0.337255 0.266667 0.227451
0.298039 0.227451 0.188235
0.180392 0.109804 0.070588
0.298039 0.227451 0.180392
0.262745 0.192157 0.145098
0.207843 0.137255 0.090196
0.345098 0.274510 0.227451
0.333333 0.262745 0.215686
0.317647 0.243137 0.188235
0.372549 0.298039 0.243137
0.294118 0.219608 0.164706
0.505882 0.431373 0.376471
0.419608 0.345098 0.290196
0.474510 0.388235 0.337255
0.427451 0.341176 0.290196
0.337255 0.250980 0.200000
0.549020 0.462745 0.411765
0.494118 0.407843 0.356863
0.376471 0.290196 0.239216
0.396078 0.309804 0.250980
0.537255 0.447059 0.388235
0.427451 0.337255 0.278431
0.674510 0.584314 0.525490
0.317647 0.227451 0.168627
0.584314 0.494118 0.435294
0.564706 0.474510 0.415686
0.694118 0.603922 0.545098
0.400000 0.309804 0.250980
0.772549 0.682353 0.623529
0.462745 0.372549 0.313725
0.666667 0.576471 0.517647
0.556863 0.470588 0.411765
0.643137 0.556863 0.498039
0.494118 0.403922 0.345098
0.517647 0.431373 0.372549
0.121569 0.066667 0.031373
0.305882 0.250980 0.215686
0.180392 0.125490 0.090196
0.243137 0.188235 0.152941
0.160784 0.105882 0.070588
0.294118 0.239216 0.203922
0.266667 0.211765 0.176471
0.156863 0.101961 0.066667
0.313725 0.262745 0.227451
0.184314 0.129412 0.094118
0.231373 0.180392 0.145098
0.196078 0.141176 0.105882
0.223529 0.168627 0.125490
0.168627 0.101961 0.062745
0.156863 0.101961 0.058824
0.278431 0.211765 0.172549
0.121569 0.054902 0.015686
0.203922 0.137255 0.098039
0.184314 0.117647 0.078431
0.188235 0.121569 0.082353
0.345098 0.278431 0.239216
0.270588 0.203922 0.164706
0.298039 0.231373 0.192157
0.290196 0.223529 0.184314
0.274510 0.207843 0.168627
0.141176 0.074510 0.035294
0.282353 0.215686 0.176471
0.215686 0.145098 0.098039
0.458824 0.388235 0.341176
0.105882 0.035294 0.000000
0.349020 0.278431 0.231373
0.380392 0.309804 0.262745
0.184314 0.113725 0.066667
0.470588 0.400000 0.352941
0.266667 0.188235 0.145098
0.290196 0.215686 0.160784
0.270588 0.196078 0.141176
0.258824 0.184314 0.129412
0.376471 0.301961 0.247059
0.490196 0.415686 0.360784
0.243137 0.168627 0.113725
0.384314 0.313725 0.258824
0.572549 0.478431 0.431373
0.415686 0.341176 0.286275
0.454902 0.368627 0.317647
0.435294 0.341176 0.294118
0.435294 0.360784 0.305882
0.474510 0.388235 0.337255
0.501961 0.411765 0.352941
0.482353 0.392157 0.333333
0.501961 0.411765 0.352941
0.490196 0.400000 0.341176
0.498039 0.407843 0.349020
0.635294 0.541176 0.494118
0.498039 0.403922 0.356863
0.568627 0.474510 0.427451
0.733333 0.643137 0.584314
0.607843 0.513725 0.466667
0.560784 0.466667 0.419608
0.552941 0.458824 0.411765
0.564706 0.470588 0.423529
0.745098 0.650980 0.603922
0.596078 0.501961 0.454902
0.588235 0.498039 0.439216
0.247059 0.192157 0.156863
0.207843 0.149020 0.121569
0.168627 0.101961 0.062745
0.184314 0.133333 0.098039
0.266667 0.211765 0.176471
0.215686 0.149020 0.109804
0.180392 0.141176 0.105882
0.231373 0.176471 0.141176
0.262745 0.207843 0.164706
0.427451 0.372549 0.329412
0.188235 0.133333 0.098039
0.223529 0.168627 0.125490
0.215686 0.160784 0.117647
0.309804 0.254902 0.211765
0.337255 0.282353 0.239216
0.266667 0.211765 0.168627
0.243137 0.176471 0.137255
0.286275 0.219608 0.180392
0.227451 0.160784 0.121569
0.282353 0.215686 0.176471
0.298039 0.231373 0.192157
0.125490 0.058824 0.019608
0.243137 0.180392 0.129412
0.278431 0.215686 0.164706
0.403922 0.337255 0.298039
0.188235 0.137255 0.105882
0.239216 0.176471 0.125490
0.427451 0.349020 0.305882
0.341176 0.270588 0.231373
0.419608 0.349020 0.294118
0.274510 0.203922 0.156863
0.258824 0.188235 0.141176
0.341176 0.262745 0.219608
0.443137 0.364706 0.321569
0.298039 0.223529 0.168627
0.317647 0.243137 0.188235
0.392157 0.317647 0.262745
0.380392 0.305882 0.250980
0.247059 0.160784 0.109804
0.572549 0.486275 0.435294
0.423529 0.349020 0.294118
0.352941 0.266667 0.215686
0.427451 0.349020 0.305882
0.435294 0.349020 0.298039
0.533333 0.458824 0.403922
0.498039 0.411765 0.360784
0.427451 0.341176 0.290196
0.580392 0.494118 0.443137
0.447059 0.360784 0.301961
0.450980 0.364706 0.305882
0.635294 0.549020 0.490196
0.419608 0.333333 0.274510
0.615686 0.529412 0.470588
0.576471 0.490196 0.431373
0.505882 0.419608 0.368627
0.470588 0.384314 0.333333
0.615686 0.521569 0.474510
0.650980 0.549020 0.494118
0.705882 0.615686 0.556863
0.564706 0.470588 0.423529
0.494118 0.400000 0.352941
0.643137 0.556863 0.505882
0.623529 0.537255 0.478431
0.501961 0.407843 0.360784
0.352941 0.298039 0.254902
0.113725 0.047059 0.007843
0.117647 0.062745 0.019608
0.098039 0.043137 0.000000
0.203922 0.149020 0.105882
0.294118 0.239216 0.196078
0.227451 0.172549 0.129412
0.356863 0.301961 0.258824
0.321569 0.266667 0.223529
0.341176 0.286275 0.250980
0.113725 0.058824 0.015686
0.278431 0.223529 0.188235
0.247059 0.192157 0.149020
0.235294 0.180392 0.145098
0.141176 0.086275 0.043137
0.317647 0.262745 0.219608
0.211765 0.145098 0.105882
0.313725 0.247059 0.207843
0.337255 0.270588 0.231373
0.207843 0.141176 0.101961
0.298039 0.227451 0.188235
0.294118 0.227451 0.188235
0.380392 0.309804 0.270588
0.141176 0.078431 0.027451
0.250980 0.180392 0.133333
0.164706 0.094118 0.047059
0.400000 0.329412 0.282353
0.337255 0.266667 0.219608
0.329412 0.258824 0.211765
0.380392 0.309804 0.262745
0.317647 0.247059 0.200000
0.352941 0.282353 0.235294
0.290196 0.211765 0.168627
0.298039 0.219608 0.176471
0.388235 0.309804 0.266667
0.337255 0.262745 0.207843
0.345098 0.270588 0.215686
0.388235 0.313725 0.258824
0.447059 0.372549 0.317647
0.360784 0.286275 0.231373
0.301961 0.227451 0.172549
0.301961 0.215686 0.164706
0.482353 0.396078 0.345098
0.384314 0.298039 0.247059
0.313725 0.227451 0.176471
0.588235 0.501961 0.450980
0.368627 0.282353 0.231373
0.494118 0.400000 0.352941
0.466667 0.376471 0.317647
0.388235 0.298039 0.239216
0.552941 0.462745 0.403922
0.682353 0.592157 0.533333
0.513725 0.423529 0.364706
