Nostalgia reference/public/luts/sepia3.cube
#Generated with IWLTBAP LUT Generator
#Website: https://luts.iwltbap.com
TITLE "Sepia 3"
LUT_3D_SIZE 4
0.149020 0.105882 0.082353
0.301961 0.247059 0.211765
0.368627 0.298039 0.250980
0.388235 0.301961 0.250980
0.188235 0.117647 0.070588
0.360784 0.286275 0.231373
0.513725 0.423529 0.364706
0.615686 0.529412 0.478431
0.643137 0.568627 0.513725
0.647059 0.552941 0.505882
0.686275 0.607843 0.564706
0.850980 0.780392 0.741176
0.847059 0.796078 0.772549
0.850980 0.792157 0.764706
0.807843 0.756863 0.733333
0.956863 0.921569 0.901961
0.133333 0.082353 0.047059
0.254902 0.188235 0.149020
0.513725 0.427451 0.376471
0.713725 0.627451 0.584314
0.572549 0.478431 0.431373
0.564706 0.470588 0.423529
0.733333 0.654902 0.611765
0.670588 0.603922 0.564706
0.839216 0.768627 0.729412
0.788235 0.721569 0.682353
0.964706 0.898039 0.866667
0.811765 0.768627 0.745098
0.839216 0.807843 0.796078
0.882353 0.847059 0.827451
0.980392 0.945098 0.925490
1.000000 1.000000 1.000000
0.164706 0.098039 0.066667
0.298039 0.227451 0.180392
0.501961 0.415686 0.364706
0.780392 0.701961 0.666667
0.658824 0.564706 0.517647
0.835294 0.749020 0.698039
0.756863 0.666667 0.635294
0.827451 0.760784 0.729412
0.964706 0.898039 0.866667
0.729412 0.658824 0.619608
0.972549 0.917647 0.882353
1.000000 1.000000 0.980392
0.941176 0.909804 0.901961
0.796078 0.764706 0.752941
0.952941 0.949020 0.933333
0.992157 0.976471 0.964706
0.294118 0.207843 0.156863
0.580392 0.494118 0.435294
0.533333 0.439216 0.392157
0.709804 0.623529 0.580392
0.717647 0.639216 0.596078
0.796078 0.717647 0.674510
0.701961 0.635294 0.596078
0.690196 0.623529 0.592157
0.823529 0.756863 0.725490
0.882353 0.815686 0.784314
0.949020 0.894118 0.858824
0.874510 0.823529 0.800000
0.866667 0.839216 0.815686
0.905882 0.862745 0.847059
0.952941 0.949020 0.941176
0.956863 0.925490 0.913725
